;Generated with Cura_SteamEngine 13.11
M109 S210     ;Heatup to 210C
G21           ;metric values
G90           ;absolute positioning
G28           ;Home
G1 Z15.0 F300 ;move the platform down 15mm
G92 E0        ;zero the extruded length
G1 F200 E5    ;extrude 5mm of feed stock
G92 E0        ;zero the extruded length again

;total_layers=396
;LAYER:0
M107
G0 F4800 X83.05 Y45.06 Z0.30
;TYPE:SKIRT
G1 F2700 E0.00000
G1 F1200 X84.60 Y42.16 E0.06023
G1 X84.69 Y42.00 E0.06363
G1 X85.25 Y41.09 E0.08301
G1 X85.60 Y40.63 E0.09367
G1 X86.19 Y39.97 E0.10991
G1 X86.50 Y39.68 E0.11767
G1 X87.16 Y39.13 E0.13336
G1 X87.62 Y38.81 E0.14360
G1 X88.46 Y38.33 E0.16120
G1 X88.97 Y38.10 E0.17146
G1 X90.00 Y37.74 E0.19157
G1 X90.63 Y37.59 E0.20339
G1 X91.85 Y37.44 E0.22580
G1 X92.64 Y37.44 E0.24023
G1 X93.85 Y37.59 E0.26251
G1 X94.47 Y37.74 E0.27426
G1 X95.51 Y38.10 E0.29431
G1 X96.02 Y38.33 E0.30453
G1 X96.86 Y38.80 E0.32222
G1 X97.33 Y39.13 E0.33267
G1 X97.99 Y39.68 E0.34847
G1 X98.29 Y39.98 E0.35621
G1 X98.95 Y40.70 E0.37398
G1 X99.38 Y41.31 E0.38759
G1 X101.63 Y45.47 E0.47428
G1 X101.70 Y45.62 E0.47729
G1 X103.32 Y49.03 E0.54623
G1 X103.41 Y49.23 E0.55035
G1 X104.41 Y51.81 E0.60087
G1 X104.48 Y52.02 E0.60500
G1 X105.29 Y54.67 E0.65575
G1 X105.34 Y54.86 E0.65924
G1 X105.97 Y57.48 E0.70861
G1 X106.00 Y57.63 E0.71134
G1 X106.49 Y60.19 E0.75912
G1 X106.51 Y60.34 E0.76181
G1 X107.11 Y64.56 E0.83988
G1 X107.13 Y64.76 E0.84350
G1 X107.31 Y67.07 E0.88583
G1 X107.32 Y67.25 E0.88918
G1 X107.39 Y71.27 E0.96271
G1 X107.47 Y72.12 E0.97827
G1 X112.69 Y100.06 E1.49819
G1 X113.60 Y103.40 E1.56172
G1 X114.61 Y105.67 E1.60706
G1 X114.83 Y105.99 E1.61424
G1 X114.21 Y104.48 E1.64422
G1 X114.00 Y103.70 E1.65903
G1 X113.75 Y101.86 E1.69293
G1 X113.75 Y101.04 E1.70783
G1 X114.00 Y99.21 E1.74164
G1 X114.20 Y98.43 E1.75641
G1 X114.91 Y96.72 E1.79029
G1 X115.32 Y96.01 E1.80531
G1 X116.30 Y94.74 E1.83469
G1 X116.28 Y94.71 E1.83531
G1 X115.88 Y94.01 E1.85013
G1 X115.28 Y92.57 E1.87867
G1 X115.07 Y91.79 E1.89344
G1 X114.86 Y90.24 E1.92209
G1 X114.86 Y89.41 E1.93712
G1 X115.07 Y87.86 E1.96575
G1 X115.28 Y87.08 E1.98051
G1 X115.88 Y85.64 E2.00910
G1 X116.28 Y84.93 E2.02401
G1 X117.23 Y83.70 E2.05253
G1 X117.80 Y83.13 E2.06727
G1 X119.04 Y82.18 E2.09583
G1 X119.75 Y81.76 E2.11083
G1 X121.20 Y81.17 E2.13943
G1 X121.98 Y80.96 E2.15423
G1 X123.52 Y80.75 E2.18275
G1 X124.33 Y80.75 E2.19753
G1 X125.89 Y80.96 E2.22624
G1 X126.68 Y81.17 E2.24135
G1 X128.13 Y81.77 E2.26992
G1 X128.82 Y82.17 E2.28459
G1 X128.97 Y82.29 E2.28805
G1 X129.11 Y82.18 E2.29136
G1 X129.83 Y81.76 E2.30645
G1 X131.28 Y81.17 E2.33515
G1 X132.06 Y80.96 E2.35003
G1 X133.61 Y80.75 E2.37857
G1 X134.41 Y80.75 E2.39330
G1 X135.96 Y80.96 E2.42187
G1 X136.75 Y81.17 E2.43684
G1 X138.20 Y81.77 E2.46548
G1 X138.91 Y82.18 E2.48039
G1 X140.14 Y83.13 E2.50890
G1 X140.71 Y83.69 E2.52358
G1 X141.66 Y84.93 E2.55214
G1 X142.07 Y85.64 E2.56724
G1 X142.67 Y87.09 E2.59589
G1 X142.88 Y87.87 E2.61063
G1 X143.08 Y89.42 E2.63914
G1 X143.08 Y90.23 E2.65407
G1 X142.88 Y91.78 E2.68265
G1 X142.83 Y91.96 E2.68598
G1 X143.39 Y91.72 E2.69708
G1 X144.19 Y91.51 E2.71219
G1 X146.02 Y91.28 E2.74597
G1 X146.81 Y91.28 E2.76043
G1 X148.65 Y91.51 E2.79427
G1 X149.45 Y91.72 E2.80944
G1 X151.16 Y92.44 E2.84344
G1 X151.87 Y92.85 E2.85830
G1 X153.33 Y93.97 E2.89208
G1 X153.90 Y94.54 E2.90677
G1 X155.03 Y96.01 E2.94061
G1 X155.44 Y96.72 E2.95566
G1 X156.15 Y98.44 E2.98966
G1 X156.36 Y99.22 E3.00454
G1 X156.60 Y101.05 E3.03828
G1 X156.60 Y101.85 E3.05297
G1 X156.36 Y103.69 E3.08684
G1 X156.15 Y104.48 E3.10185
G1 X155.43 Y106.19 E3.13573
G1 X155.03 Y106.89 E3.15051
G1 X153.91 Y108.36 E3.18432
G1 X153.33 Y108.94 E3.19919
G1 X151.86 Y110.07 E3.23315
G1 X151.15 Y110.48 E3.24813
G1 X149.44 Y111.18 E3.28199
G1 X148.66 Y111.39 E3.29678
G1 X146.82 Y111.63 E3.33068
G1 X146.01 Y111.63 E3.34564
G1 X144.17 Y111.39 E3.37949
G1 X143.39 Y111.18 E3.39421
G1 X141.68 Y110.47 E3.42803
G1 X140.98 Y110.07 E3.44291
G1 X140.80 Y109.93 E3.44715
G1 X140.62 Y110.06 E3.45122
G1 X139.91 Y110.47 E3.46624
G1 X138.20 Y111.18 E3.50008
G1 X137.42 Y111.39 E3.51480
G1 X135.58 Y111.63 E3.54874
G1 X134.76 Y111.63 E3.56379
G1 X132.92 Y111.39 E3.59770
G1 X132.15 Y111.18 E3.61238
G1 X130.44 Y110.47 E3.64610
G1 X129.74 Y110.07 E3.66096
G1 X129.55 Y109.93 E3.66523
G1 X129.38 Y110.06 E3.66925
G1 X128.67 Y110.47 E3.68426
G1 X126.96 Y111.18 E3.71815
G1 X126.18 Y111.39 E3.73296
G1 X124.34 Y111.63 E3.76684
G1 X123.52 Y111.63 E3.78181
G1 X121.68 Y111.39 E3.81571
G1 X120.91 Y111.18 E3.83046
G1 X119.20 Y110.47 E3.86426
G1 X118.50 Y110.07 E3.87912
G1 X117.03 Y108.94 E3.91298
G1 X116.71 Y108.63 E3.92107
G1 X117.38 Y109.44 E3.94020
G1 X135.01 Y127.41 E4.40083
G1 X135.93 Y129.69 E4.44574
G1 X135.93 Y131.01 E4.47002
G1 X135.94 Y131.55 E4.47990
G1 X135.94 Y131.64 E4.48149
G1 X135.93 Y132.62 E4.49940
G1 X135.94 Y133.59 E4.51714
G1 X135.94 Y133.63 E4.51787
G1 X135.93 Y134.55 E4.53481
G1 X135.94 Y134.69 E4.53723
G1 X135.94 Y134.75 E4.53834
G1 X135.93 Y135.75 E4.55664
G1 X135.93 Y136.86 E4.57695
G1 X135.93 Y136.88 E4.57742
G1 X135.93 Y138.14 E4.60032
G1 X135.94 Y138.70 E4.61066
G1 X135.94 Y138.75 E4.61154
G1 X135.90 Y143.09 E4.69088
G1 X132.93 Y146.54 E4.77430
G1 X107.38 Y150.50 E5.24716
G1 X107.41 Y156.31 E5.35348
G1 X107.41 Y156.48 E5.35661
G1 X107.37 Y157.32 E5.37200
G1 X106.99 Y158.66 E5.39740
G1 X106.26 Y160.01 E5.42542
G1 X105.20 Y161.15 E5.45404
G1 X103.79 Y162.06 E5.48464
G1 X102.19 Y162.56 E5.51528
G1 X101.23 Y162.60 E5.53288
G1 X101.09 Y162.60 E5.53543
G1 X100.15 Y162.59 E5.55264
G1 X83.43 Y162.60 E5.85864
G1 X83.37 Y162.60 E5.85973
G1 X82.32 Y162.58 E5.87882
G1 X80.60 Y162.04 E5.91189
G1 X79.23 Y161.10 E5.94227
G1 X78.28 Y160.08 E5.96784
G1 X77.54 Y158.80 E5.99469
G1 X77.13 Y157.43 E6.02094
G1 X77.07 Y156.55 E6.03714
G1 X77.06 Y156.34 E6.04104
G1 X77.09 Y150.50 E6.14771
G1 X51.47 Y146.55 E6.62209
G1 X48.46 Y142.95 E6.70780
G1 X48.53 Y140.63 E6.75022
G1 X48.52 Y138.75 E6.78465
G1 X48.52 Y138.72 E6.78509
G1 X48.52 Y137.89 E6.80031
G1 X48.52 Y136.75 E6.82126
G1 X48.52 Y136.71 E6.82184
G1 X48.53 Y135.68 E6.84076
G1 X48.51 Y133.64 E6.87808
G1 X48.51 Y133.60 E6.87885
G1 X48.52 Y132.62 E6.89676
G1 X48.51 Y131.61 E6.91516
G1 X48.52 Y131.49 E6.91743
G1 X48.53 Y131.20 E6.92274
G1 X48.53 Y131.07 E6.92515
G1 X48.53 Y130.97 E6.92693
G1 X48.53 Y130.88 E6.92861
G1 X48.53 Y130.74 E6.93108
G1 X48.57 Y129.49 E6.95402
G1 X49.49 Y127.36 E6.99644
G1 X67.10 Y109.43 E7.45617
G1 X68.38 Y107.87 E7.49307
G1 X69.86 Y105.66 E7.54174
G1 X70.87 Y103.40 E7.58705
G1 X71.79 Y100.05 E7.65052
G1 X77.02 Y71.97 E8.17304
G1 X77.10 Y71.16 E8.18804
G1 X77.16 Y67.26 E8.25937
G1 X77.17 Y67.07 E8.26278
G1 X77.34 Y64.76 E8.30518
G1 X77.36 Y64.56 E8.30884
G1 X77.96 Y60.34 E8.38694
G1 X77.99 Y60.19 E8.38959
G1 X78.47 Y57.63 E8.43737
G1 X78.51 Y57.48 E8.44012
G1 X79.14 Y54.86 E8.48949
G1 X79.19 Y54.67 E8.49295
G1 X80.00 Y52.02 E8.54369
G1 X80.07 Y51.81 E8.54785
G1 X81.07 Y49.23 E8.59844
G1 X81.16 Y49.01 E8.60267
G1 X82.99 Y45.19 E8.68024
G1 X83.05 Y45.06 E8.68280
G1 F2700 E4.18280
G0 F4800 X89.10 Y48.18
;TYPE:WALL-INNER
G1 F2700 E8.68280
G1 F1200 X90.54 Y45.47 E8.73891
G1 X90.86 Y44.94 E8.75026
G1 X91.06 Y44.73 E8.75556
G1 X91.26 Y44.56 E8.76043
G1 X91.52 Y44.41 E8.76579
G1 X91.88 Y44.29 E8.77277
G1 X92.24 Y44.24 E8.77946
G1 X92.60 Y44.29 E8.78610
G1 X92.96 Y44.41 E8.79309
G1 X93.22 Y44.56 E8.79843
G1 X93.42 Y44.73 E8.80336
G1 X93.61 Y44.93 E8.80835
G1 X95.60 Y48.63 E8.88514
G1 X97.12 Y51.82 E8.94982
G1 X98.01 Y54.13 E8.99516
G1 X98.76 Y56.57 E9.04188
G1 X99.34 Y58.98 E9.08720
G1 X99.79 Y61.36 E9.13150
G1 X100.36 Y65.40 E9.20612
G1 X100.52 Y67.47 E9.24415
G1 X100.59 Y71.69 E9.32123
G1 X100.74 Y73.10 E9.34724
G1 X106.05 Y101.59 E9.87734
G1 X107.19 Y105.72 E9.95583
G1 X108.66 Y109.00 E10.02142
G1 X110.64 Y111.95 E10.08658
G1 X112.33 Y114.00 E10.13511
G1 X129.13 Y131.12 E10.57390
G1 X129.14 Y131.62 E10.58307
G1 X129.13 Y132.63 E10.60147
G1 X129.14 Y133.63 E10.61976
G1 X129.13 Y134.62 E10.63789
G1 X129.14 Y134.71 E10.63958
G1 X129.13 Y135.73 E10.65822
G1 X129.13 Y136.89 E10.67937
G1 X129.13 Y138.13 E10.70209
G1 X129.14 Y138.72 E10.71297
G1 X129.13 Y140.25 E10.74082
G1 X102.66 Y144.35 E11.23069
G1 X101.93 Y144.58 E11.24468
G1 X101.83 Y144.64 E11.24682
G1 X101.24 Y145.12 E11.26080
G1 X101.18 Y145.20 E11.26262
G1 X100.75 Y145.89 E11.27744
G1 X100.71 Y145.99 E11.27945
G1 X100.57 Y146.75 E11.29358
G1 X100.57 Y146.83 E11.29499
G1 X100.57 Y146.85 E11.29547
G1 X100.57 Y147.98 E11.31603
G1 X100.61 Y155.79 E11.45899
G1 X100.21 Y155.79 E11.46638
G1 X83.87 Y155.80 E11.76528
G1 X83.91 Y147.93 E11.90927
G1 X83.90 Y146.74 E11.93102
G1 X83.76 Y145.99 E11.94494
G1 X83.72 Y145.89 E11.94697
G1 X83.30 Y145.20 E11.96177
G1 X83.23 Y145.13 E11.96353
G1 X82.65 Y144.64 E11.97748
G1 X82.54 Y144.59 E11.97964
G1 X81.76 Y144.34 E11.99466
G1 X55.33 Y140.26 E12.48392
G1 X55.32 Y138.73 E12.51198
G1 X55.32 Y137.90 E12.52704
G1 X55.32 Y136.75 E12.54811
G1 X55.33 Y135.73 E12.56687
G1 X55.31 Y133.64 E12.60510
G1 X55.32 Y132.62 E12.62367
G1 X55.32 Y131.65 E12.64154
G1 X55.33 Y131.29 E12.64811
G1 X55.33 Y131.12 E12.65109
G1 X72.16 Y113.97 E13.09068
G1 X73.84 Y111.92 E13.13924
G1 X75.84 Y108.95 E13.20479
G1 X77.30 Y105.68 E13.27030
G1 X78.42 Y101.56 E13.34835
G1 X83.76 Y72.90 E13.88160
G1 X83.89 Y71.56 E13.90641
G1 X83.96 Y67.47 E13.98111
G1 X84.11 Y65.40 E14.01910
G1 X84.69 Y61.36 E14.09375
G1 X85.14 Y58.98 E14.13804
G1 X85.72 Y56.56 E14.18358
G1 X86.46 Y54.13 E14.23002
G1 X87.36 Y51.83 E14.27533
G1 X89.10 Y48.18 E14.34922
G0 F4800 X88.74 Y48.01
;TYPE:WALL-OUTER
G1 F1200 X90.20 Y45.26 E14.40609
G1 X90.54 Y44.70 E14.41816
G1 X90.78 Y44.44 E14.42468
G1 X91.03 Y44.23 E14.43062
G1 X91.35 Y44.05 E14.43737
G1 X91.79 Y43.90 E14.44578
G1 X92.24 Y43.84 E14.45415
G1 X92.69 Y43.90 E14.46247
G1 X93.13 Y44.05 E14.47097
G1 X93.44 Y44.23 E14.47754
G1 X93.71 Y44.44 E14.48375
G1 X93.93 Y44.70 E14.49002
G1 X95.96 Y48.44 E14.56778
G1 X97.49 Y51.67 E14.63315
G1 X98.39 Y54.00 E14.67901
G1 X99.15 Y56.46 E14.72594
G1 X99.73 Y58.89 E14.77179
G1 X100.19 Y61.31 E14.81670
G1 X100.76 Y65.36 E14.89163
G1 X100.92 Y67.45 E14.93001
G1 X100.99 Y71.65 E15.00686
G1 X101.13 Y73.04 E15.03227
G1 X106.44 Y101.49 E15.56177
G1 X107.56 Y105.57 E15.63926
G1 X109.00 Y108.79 E15.70363
G1 X110.95 Y111.70 E15.76778
G1 X112.62 Y113.73 E15.81581
G1 X129.53 Y130.96 E16.25745
G1 X129.52 Y131.05 E16.25917
G1 X129.54 Y131.63 E16.26965
G1 X129.53 Y132.63 E16.28796
G1 X129.54 Y133.63 E16.30631
G1 X129.53 Y134.62 E16.32437
G1 X129.54 Y134.72 E16.32618
G1 X129.52 Y135.73 E16.34473
G1 X129.53 Y136.89 E16.36592
G1 X129.53 Y138.13 E16.38858
G1 X129.54 Y138.73 E16.39956
G1 X129.52 Y140.59 E16.43362
G1 X102.77 Y144.74 E16.92889
G1 X102.06 Y144.97 E16.94261
G1 X101.50 Y145.43 E16.95586
G1 X101.11 Y146.07 E16.96942
G1 X101.10 Y146.10 E16.97009
G1 X100.97 Y146.80 E16.98307
G1 X100.97 Y146.84 E16.98377
G1 X100.97 Y147.98 E17.00462
G1 X101.01 Y156.20 E17.15500
G1 X100.21 Y156.19 E17.16976
G1 X83.46 Y156.20 E17.47599
G1 X83.51 Y147.93 E17.62728
G1 X83.50 Y146.80 E17.64805
G1 X83.38 Y146.10 E17.66096
G1 X82.95 Y145.42 E17.67573
G1 X82.39 Y144.96 E17.68907
G1 X81.68 Y144.74 E17.70255
G1 X54.93 Y140.60 E18.19780
G1 X54.92 Y138.73 E18.23217
G1 X54.92 Y137.91 E18.24717
G1 X54.92 Y136.75 E18.26832
G1 X54.92 Y135.73 E18.28700
G1 X54.92 Y133.63 E18.32530
G1 X54.92 Y132.62 E18.34380
G1 X54.92 Y131.63 E18.36193
G1 X54.93 Y131.29 E18.36830
G1 X54.93 Y131.09 E18.37185
G1 X54.93 Y131.05 E18.37263
G1 X54.93 Y130.96 E18.37422
G1 X71.86 Y113.71 E18.81635
G1 X73.51 Y111.70 E18.86402
G1 X75.48 Y108.77 E18.92865
G1 X76.92 Y105.56 E18.99298
G1 X78.03 Y101.48 E19.07029
G1 X83.36 Y72.86 E19.60291
G1 X83.49 Y71.53 E19.62741
G1 X83.56 Y67.45 E19.70189
G1 X83.72 Y65.36 E19.74029
G1 X84.29 Y61.31 E19.81523
G1 X84.75 Y58.90 E19.85995
G1 X85.33 Y56.45 E19.90602
G1 X86.08 Y54.01 E19.95285
G1 X86.99 Y51.67 E19.99879
G1 X88.74 Y48.01 E20.07293
G0 F4800 X89.23 Y48.22
;TYPE:FILL
G1 F1200 X98.94 Y57.93 E20.32420
G0 F4800 X98.94 Y57.93
G1 F1200 X99.12 Y58.67 E20.33820
G0 F4800 X99.12 Y58.67
G1 F1200 X89.05 Y48.60 E20.59879
G0 F4800 X89.05 Y48.60
G1 F1200 X88.87 Y48.99 E20.60656
G0 F4800 X88.87 Y48.99
G1 F1200 X99.28 Y59.39 E20.87585
G0 F4800 X99.28 Y59.39
G1 F1200 X99.41 Y60.09 E20.88884
G0 F4800 X99.41 Y60.09
G1 F1200 X88.68 Y49.37 E21.16628
G0 F4800 X88.68 Y49.37
G1 F1200 X88.50 Y49.75 E21.17405
G0 F4800 X88.50 Y49.75
G1 F1200 X99.54 Y60.79 E21.45966
G0 F4800 X99.54 Y60.79
G1 F1200 X99.67 Y61.48 E21.47249
G0 F4800 X99.67 Y61.48
G1 F1200 X88.32 Y50.13 E21.76605
G0 F4800 X88.32 Y50.13
G1 F1200 X88.14 Y50.52 E21.77381
G0 F4800 X88.14 Y50.52
G1 F1200 X99.76 Y62.14 E22.07451
G0 F4800 X99.76 Y62.14
G1 F1200 X99.85 Y62.80 E22.08668
G0 F4800 X99.85 Y62.80
G1 F1200 X87.95 Y50.90 E22.39452
G0 F4800 X87.95 Y50.90
G1 F1200 X87.77 Y51.28 E22.40228
G0 F4800 X87.77 Y51.28
G1 F1200 X99.94 Y63.46 E22.71726
G0 F4800 X99.94 Y63.46
G1 F1200 X100.04 Y64.12 E22.72943
G0 F4800 X100.04 Y64.12
G1 F1200 X87.59 Y51.67 E23.05155
G0 F4800 X87.59 Y51.67
G1 F1200 X87.41 Y52.06 E23.05940
G0 F4800 X87.41 Y52.06
G1 F1200 X100.13 Y64.78 E23.38840
G0 F4800 X100.13 Y64.78
G1 F1200 X100.22 Y65.43 E23.40056
G0 F4800 X100.22 Y65.43
G1 F1200 X87.26 Y52.47 E23.73603
G0 F4800 X87.26 Y52.47
G1 F1200 X87.10 Y52.87 E23.74401
G0 F4800 X87.10 Y52.87
G1 F1200 X100.27 Y66.05 E24.08478
G0 F4800 X100.27 Y66.05
G1 F1200 X100.32 Y66.66 E24.09603
G0 F4800 X100.32 Y66.66
G1 F1200 X86.94 Y53.28 E24.44212
G0 F4800 X86.94 Y53.28
G1 F1200 X86.78 Y53.69 E24.45013
G0 F4800 X86.78 Y53.69
G1 F1200 X100.36 Y67.27 E24.80153
G0 F4800 X100.36 Y67.27
G1 F1200 X100.39 Y67.86 E24.81226
G0 F4800 X100.39 Y67.86
G1 F1200 X86.62 Y54.10 E25.16829
G0 F4800 X86.62 Y54.10
G1 F1200 X86.49 Y54.53 E25.17653
G0 F4800 X86.49 Y54.53
G1 F1200 X100.39 Y68.43 E25.53636
G0 F4800 X100.39 Y68.43
G1 F1200 X100.40 Y69.01 E25.54691
G0 F4800 X100.40 Y69.01
G1 F1200 X86.35 Y54.96 E25.91042
G0 F4800 X86.35 Y54.96
G1 F1200 X86.22 Y55.39 E25.91869
G0 F4800 X86.22 Y55.39
G1 F1200 X100.42 Y69.58 E26.28590
G0 F4800 X100.42 Y69.58
G1 F1200 X100.43 Y70.16 E26.29644
G0 F4800 X100.43 Y70.16
G1 F1200 X86.09 Y55.83 E26.66733
G0 F4800 X86.09 Y55.83
G1 F1200 X85.96 Y56.26 E26.67561
G0 F4800 X85.96 Y56.26
G1 F1200 X100.44 Y70.74 E27.05021
G0 F4800 X100.44 Y70.74
G1 F1200 X100.44 Y71.31 E27.06075
G0 F4800 X100.44 Y71.31
G1 F1200 X85.83 Y56.70 E27.43886
G0 F4800 X85.83 Y56.70
G1 F1200 X85.72 Y57.15 E27.44744
G0 F4800 X85.72 Y57.15
G1 F1200 X100.47 Y71.91 E27.82914
G0 F4800 X100.47 Y71.91
G1 F1200 X100.54 Y72.54 E27.84073
G0 F4800 X100.54 Y72.54
G1 F1200 X85.61 Y57.61 E28.22694
G0 F4800 X85.61 Y57.61
G1 F1200 X85.50 Y58.06 E28.23552
G0 F4800 X85.50 Y58.06
G1 F1200 X100.61 Y73.17 E28.62637
G0 F4800 X100.61 Y73.17
G1 F1200 X100.74 Y73.87 E28.63930
G0 F4800 X100.74 Y73.87
G1 F1200 X85.39 Y58.52 E29.03634
G0 F4800 X85.39 Y58.52
G1 F1200 X85.28 Y58.98 E29.04492
G0 F4800 X85.28 Y58.98
G1 F1200 X100.87 Y74.56 E29.44814
G0 F4800 X100.87 Y74.56
G1 F1200 X101.00 Y75.26 E29.46109
G0 F4800 X101.00 Y75.26
G1 F1200 X85.19 Y59.45 E29.87002
G0 F4800 X85.19 Y59.45
G1 F1200 X85.10 Y59.93 E29.87888
G0 F4800 X85.10 Y59.93
G1 F1200 X101.13 Y75.95 E30.29348
G0 F4800 X101.13 Y75.95
G1 F1200 X101.26 Y76.65 E30.30644
G0 F4800 X101.26 Y76.65
G1 F1200 X85.01 Y60.40 E30.72676
G0 F4800 X85.01 Y60.40
G1 F1200 X84.92 Y60.88 E30.73560
G0 F4800 X84.92 Y60.88
G1 F1200 X101.39 Y77.34 E31.16162
G0 F4800 X101.39 Y77.34
G1 F1200 X101.52 Y78.04 E31.17457
G0 F4800 X101.52 Y78.04
G1 F1200 X84.83 Y61.35 E31.60630
G0 F4800 X84.83 Y61.35
G1 F1200 X84.76 Y61.85 E31.61545
G0 F4800 X84.76 Y61.85
G1 F1200 X101.64 Y78.74 E32.05234
G0 F4800 X101.64 Y78.74
G1 F1200 X101.78 Y79.43 E32.06530
G0 F4800 X101.78 Y79.43
G1 F1200 X84.69 Y62.34 E32.50736
G0 F4800 X84.69 Y62.34
G1 F1200 X84.62 Y62.84 E32.51653
G0 F4800 X84.62 Y62.84
G1 F1200 X101.90 Y80.13 E32.96376
G0 F4800 X101.90 Y80.13
G1 F1200 X102.04 Y80.82 E32.97671
G0 F4800 X102.04 Y80.82
G1 F1200 X84.55 Y63.33 E33.42913
G0 F4800 X84.55 Y63.33
G1 F1200 X84.48 Y63.83 E33.43827
G0 F4800 X84.48 Y63.83
G1 F1200 X102.16 Y81.52 E33.89587
G0 F4800 X102.16 Y81.52
