;Generated with Cura_SteamEngine 13.11
M109 S210     ;Heatup to 210C
G21           ;metric values
G90           ;absolute positioning
G28           ;Home
G1 Z15.0 F300 ;move the platform down 15mm
G92 E0        ;zero the extruded length
G1 F200 E5    ;extrude 5mm of feed stock
G92 E0        ;zero the extruded length again

;total_layers=159
;LAYER:0
M107
G0 F4800 X76.30 Y79.91 Z0.30
;TYPE:SKIRT
G1 F2700 E0.00000
G1 F1200 X79.93 Y76.28 E0.09394
G1 X125.07 Y76.28 E0.91965
G1 X128.70 Y79.91 E1.01360
G1 X128.70 Y125.09 E1.84010
G1 X125.07 Y128.72 E1.93406
G1 X79.93 Y128.72 E2.75977
G1 X76.30 Y125.09 E2.85372
G1 X76.30 Y79.91 E3.68022
G0 F4800 X101.75 Y101.37
G1 F1200 X101.71 Y101.42 E3.68144
G1 X101.70 Y101.44 E3.68186
G1 X101.70 Y105.11 E3.74896
G1 X103.02 Y106.43 E3.78307
G1 X103.17 Y105.90 E3.79322
G1 X103.30 Y105.80 E3.79613
G1 X103.30 Y101.47 E3.87537
G1 X103.17 Y101.30 E3.87927
G1 X103.14 Y101.27 E3.88014
G1 X103.10 Y101.23 E3.88113
G1 X102.78 Y101.07 E3.88763
G1 X102.72 Y101.06 E3.88869
G1 X102.65 Y101.04 E3.88998
G1 X102.58 Y101.04 E3.89132
G1 X102.49 Y101.03 E3.89303
G1 X102.43 Y101.04 E3.89413
G1 X102.34 Y101.05 E3.89567
G1 X102.27 Y101.06 E3.89709
G1 X102.19 Y101.08 E3.89844
G1 X102.13 Y101.11 E3.89977
G1 X102.07 Y101.13 E3.90099
G1 X101.97 Y101.18 E3.90289
G1 X101.93 Y101.21 E3.90384
G1 X101.85 Y101.28 E3.90573
G1 X101.81 Y101.32 E3.90686
G1 X101.75 Y101.37 E3.90820
G0 F4800 X96.88 Y96.78
G0 X96.61 Y96.92
;TYPE:WALL-INNER
G1 F1200 X96.23 Y97.39 E3.91931
G1 X95.89 Y97.89 E3.93038
G1 X95.59 Y98.42 E3.94147
G1 X95.33 Y98.97 E3.95253
G1 X95.11 Y99.54 E3.96374
G1 X94.91 Y100.26 E3.97742
G1 X94.90 Y109.86 E4.15303
G1 X95.25 Y110.21 E4.16213
G1 X96.00 Y110.21 E4.17579
G1 X96.03 Y110.31 E4.17778
G1 X96.53 Y111.23 E4.19682
G1 X97.17 Y112.07 E4.21608
G1 X97.53 Y112.45 E4.22584
G1 X97.96 Y112.83 E4.23627
G1 X98.10 Y112.92 E4.23933
G1 X98.13 Y116.81 E4.31051
G1 X98.20 Y117.27 E4.31892
G1 X98.32 Y117.71 E4.32740
G1 X98.49 Y118.14 E4.33580
G1 X98.70 Y118.55 E4.34421
G1 X98.95 Y118.94 E4.35264
G1 X99.24 Y119.29 E4.36111
G1 X99.58 Y119.63 E4.36979
G1 X99.91 Y119.90 E4.37764
G1 X100.33 Y120.16 E4.38664
G1 X100.74 Y120.37 E4.39510
G1 X101.17 Y120.53 E4.40349
G1 X101.61 Y120.65 E4.41187
G1 X102.06 Y120.71 E4.42005
G1 X102.53 Y120.74 E4.42876
G1 X102.99 Y120.71 E4.43718
G1 X103.45 Y120.64 E4.44563
G1 X103.89 Y120.51 E4.45400
G1 X104.32 Y120.34 E4.46248
G1 X104.73 Y120.13 E4.47088
G1 X105.11 Y119.88 E4.47927
G1 X105.46 Y119.60 E4.48745
G1 X105.78 Y119.27 E4.49586
G1 X106.07 Y118.91 E4.50429
G1 X106.31 Y118.54 E4.51238
G1 X106.53 Y118.11 E4.52112
G1 X106.69 Y117.68 E4.52954
G1 X106.81 Y117.24 E4.53798
G1 X106.88 Y116.78 E4.54640
G1 X106.90 Y112.92 E4.61705
G1 X107.10 Y112.79 E4.62131
G1 X107.49 Y112.43 E4.63105
G1 X108.17 Y111.65 E4.65009
G1 X108.48 Y111.21 E4.65993
G1 X108.99 Y110.27 E4.67947
G1 X109.00 Y110.21 E4.68056
G1 X109.75 Y110.21 E4.69420
G1 X110.10 Y109.86 E4.70331
G1 X110.09 Y100.26 E4.87891
G1 X109.88 Y99.51 E4.89310
G1 X109.66 Y98.94 E4.90423
G1 X109.40 Y98.40 E4.91530
G1 X109.09 Y97.86 E4.92669
G1 X108.38 Y96.90 E4.94846
G1 X107.51 Y96.05 E4.97074
G1 X107.01 Y95.67 E4.98217
G1 X106.49 Y95.33 E4.99360
G1 X105.43 Y94.80 E5.01532
G1 X104.85 Y94.59 E5.02649
G1 X104.27 Y94.43 E5.03759
G1 X103.09 Y94.25 E5.05934
G1 X102.49 Y94.23 E5.07038
G1 X101.86 Y94.25 E5.08192
G1 X101.26 Y94.33 E5.09297
G1 X100.67 Y94.45 E5.10408
G1 X100.08 Y94.61 E5.11517
G1 X99.51 Y94.82 E5.12626
G1 X98.96 Y95.08 E5.13733
G1 X98.44 Y95.37 E5.14838
G1 X97.95 Y95.70 E5.15912
G1 X97.46 Y96.08 E5.17054
G1 X97.02 Y96.48 E5.18126
G1 X96.61 Y96.92 E5.19234
G0 F4800 X95.67 Y96.09
G1 F1200 X96.17 Y95.57 E5.20559
G1 X96.71 Y95.08 E5.21877
G1 X97.25 Y94.66 E5.23138
G1 X97.84 Y94.28 E5.24426
G1 X98.44 Y93.95 E5.25677
G1 X99.11 Y93.64 E5.27019
G1 X99.22 Y93.02 E5.28168
G1 X98.36 Y92.17 E5.30380
G1 X97.83 Y91.40 E5.32091
G1 X97.43 Y90.55 E5.33813
G1 X97.18 Y89.64 E5.35537
G1 X97.10 Y88.62 E5.37404
G1 X97.08 Y88.56 E5.37511
G1 X96.90 Y87.93 E5.38708
G1 X96.66 Y87.34 E5.39886
G1 X96.35 Y86.78 E5.41063
G1 X95.97 Y86.25 E5.42244
G1 X95.53 Y85.76 E5.43461
G1 X95.04 Y85.33 E5.44636
G1 X94.52 Y84.96 E5.45811
G1 X93.95 Y84.65 E5.46989
G1 X93.36 Y84.41 E5.48168
G1 X92.74 Y84.24 E5.49340
G1 X92.13 Y84.14 E5.50479
G1 X91.48 Y84.10 E5.51657
G1 X90.82 Y84.14 E5.52876
G1 X90.18 Y84.26 E5.54054
G1 X89.57 Y84.44 E5.55226
G1 X88.98 Y84.69 E5.56404
G1 X88.41 Y85.01 E5.57584
G1 X87.89 Y85.38 E5.58755
G1 X87.43 Y85.80 E5.59893
G1 X87.01 Y86.28 E5.61071
G1 X86.64 Y86.81 E5.62249
G1 X86.34 Y87.34 E5.63364
G1 X86.08 Y87.97 E5.64602
G1 X85.91 Y88.58 E5.65764
G1 X85.90 Y100.63 E5.87811
G1 X86.25 Y100.98 E5.88720
G1 X93.21 Y100.98 E6.01454
G1 X93.54 Y100.71 E6.02232
G1 X93.74 Y99.79 E6.03961
G1 X93.94 Y99.13 E6.05227
G1 X94.19 Y98.46 E6.06520
G1 X94.49 Y97.83 E6.07806
G1 X94.84 Y97.22 E6.09088
G1 X95.24 Y96.64 E6.10382
G1 X95.67 Y96.09 E6.11658
G0 F4800 X93.25 Y101.78
G1 F1200 X86.75 Y101.78 E6.23543
G1 X86.40 Y102.13 E6.24451
G1 X86.40 Y119.59 E6.56380
G1 X86.75 Y119.94 E6.57290
G1 X93.25 Y119.94 E6.69175
G1 X93.60 Y119.59 E6.70086
G1 X93.60 Y102.13 E7.02015
G1 X93.25 Y101.78 E7.02924
G0 F4800 X99.09 Y93.62
G0 X99.89 Y91.86
G1 F1200 X100.48 Y92.27 E7.04235
G1 X101.13 Y92.57 E7.05540
G1 X101.81 Y92.74 E7.06831
G1 X102.47 Y92.80 E7.08043
G1 X102.53 Y92.80 E7.08142
G1 X103.25 Y92.73 E7.09465
G1 X103.89 Y92.56 E7.10674
G1 X103.93 Y92.54 E7.10771
G1 X104.58 Y92.23 E7.12075
G1 X105.16 Y91.82 E7.13370
G1 X105.62 Y91.36 E7.14583
G1 X105.66 Y91.32 E7.14676
G1 X106.06 Y90.73 E7.15983
G1 X106.34 Y90.13 E7.17195
G1 X106.36 Y90.08 E7.17292
G1 X106.54 Y89.39 E7.18600
G1 X106.60 Y88.73 E7.19812
G1 X106.60 Y88.68 E7.19906
G1 X106.53 Y87.96 E7.21214
G1 X106.36 Y87.32 E7.22426
G1 X106.34 Y87.27 E7.22523
G1 X106.04 Y86.63 E7.23830
G1 X105.62 Y86.04 E7.25139
G1 X105.15 Y85.57 E7.26364
G1 X105.11 Y85.54 E7.26463
G1 X104.52 Y85.13 E7.27770
G1 X103.87 Y84.84 E7.29075
G1 X103.19 Y84.66 E7.30366
G1 X102.53 Y84.60 E7.31580
G1 X102.47 Y84.60 E7.31675
G1 X101.75 Y84.67 E7.33000
G1 X101.06 Y84.86 E7.34306
G1 X100.46 Y85.14 E7.35516
G1 X99.84 Y85.58 E7.36905
G1 X99.34 Y86.09 E7.38213
G1 X98.94 Y86.67 E7.39519
G1 X98.65 Y87.27 E7.40731
G1 X98.64 Y87.32 E7.40828
G1 X98.46 Y88.01 E7.42134
G1 X98.40 Y88.68 E7.43348
G1 X98.40 Y88.73 E7.43442
G1 X98.47 Y89.44 E7.44748
G1 X98.64 Y90.08 E7.45962
G1 X98.65 Y90.13 E7.46059
G1 X98.96 Y90.78 E7.47367
G1 X99.38 Y91.36 E7.48674
G1 X99.89 Y91.86 E7.49995
G0 F4800 X101.81 Y92.74
G0 X105.78 Y93.02
G1 F1200 X105.89 Y93.64 E7.51141
G1 X106.59 Y93.96 E7.52547
G1 X107.20 Y94.30 E7.53823
G1 X107.79 Y94.69 E7.55124
G1 X108.34 Y95.12 E7.56388
G1 X108.85 Y95.58 E7.57647
G1 X109.32 Y96.09 E7.58914
G1 X109.76 Y96.64 E7.60214
G1 X110.16 Y97.22 E7.61505
G1 X110.51 Y97.83 E7.62772
G1 X110.81 Y98.46 E7.64063
G1 X111.07 Y99.13 E7.65373
G1 X111.26 Y99.79 E7.66626
G1 X111.46 Y100.71 E7.68354
G1 X111.79 Y100.98 E7.69132
G1 X118.75 Y100.98 E7.81866
G1 X119.10 Y100.63 E7.82777
G1 X119.09 Y88.58 E8.04824
G1 X118.90 Y87.93 E8.06046
G1 X118.66 Y87.34 E8.07224
G1 X118.35 Y86.78 E8.08402
G1 X117.97 Y86.25 E8.09582
G1 X117.53 Y85.76 E8.10800
G1 X117.04 Y85.33 E8.11974
G1 X116.52 Y84.96 E8.13149
G1 X115.95 Y84.65 E8.14327
G1 X115.36 Y84.41 E8.15506
G1 X114.74 Y84.24 E8.16678
G1 X114.13 Y84.14 E8.17817
G1 X113.48 Y84.10 E8.18995
G1 X112.82 Y84.14 E8.20214
G1 X112.18 Y84.26 E8.21392
G1 X111.57 Y84.44 E8.22564
G1 X110.98 Y84.69 E8.23742
G1 X110.41 Y85.01 E8.24922
G1 X109.89 Y85.38 E8.26094
G1 X109.43 Y85.80 E8.27231
G1 X109.01 Y86.28 E8.28409
G1 X108.64 Y86.81 E8.29587
G1 X108.34 Y87.34 E8.30702
G1 X108.08 Y87.97 E8.31940
G1 X107.92 Y88.56 E8.33077
G1 X107.90 Y88.62 E8.33183
G1 X107.82 Y89.64 E8.35051
G1 X107.57 Y90.55 E8.36774
G1 X107.17 Y91.40 E8.38504
G1 X106.64 Y92.17 E8.40201
G1 X105.78 Y93.02 E8.42421
G0 F4800 X105.91 Y93.62
G0 X111.75 Y101.78
G1 F1200 X111.40 Y102.13 E8.43329
G1 X111.40 Y119.59 E8.75259
G1 X111.75 Y119.94 E8.76168
G1 X118.25 Y119.94 E8.88053
G1 X118.60 Y119.59 E8.88964
G1 X118.60 Y102.13 E9.20893
G1 X118.25 Y101.78 E9.21803
G1 X111.75 Y101.78 E9.33688
G0 F4800 X118.74 Y100.96
G0 X119.08 Y100.62
G0 X121.90 Y83.08
G1 F1200 X121.90 Y121.92 E10.04745
G1 X83.10 Y121.92 E10.75724
G1 X83.10 Y83.08 E11.46781
G1 X121.90 Y83.08 E12.17760
G0 F4800 X122.30 Y82.68
;TYPE:WALL-OUTER
G1 F1200 X122.30 Y122.32 E12.90280
G1 X82.70 Y122.32 E13.62722
G1 X82.70 Y82.68 E14.35243
G1 X122.30 Y82.68 E15.07685
G0 F4800 X122.00 Y82.89
G0 X117.89 Y86.31
G0 X117.67 Y86.51
G1 F1200 X117.25 Y86.05 E15.08819
G1 X116.80 Y85.65 E15.09911
G1 X116.32 Y85.31 E15.11006
G1 X115.79 Y85.02 E15.12100
G1 X115.24 Y84.79 E15.13196
G1 X114.66 Y84.63 E15.14290
G1 X114.09 Y84.53 E15.15347
G1 X113.49 Y84.50 E15.16443
G1 X112.87 Y84.54 E15.17577
G1 X112.29 Y84.64 E15.18670
G1 X111.71 Y84.81 E15.19762
G1 X111.16 Y85.04 E15.20858
G1 X110.64 Y85.34 E15.21955
G1 X110.15 Y85.69 E15.23047
G1 X109.72 Y86.07 E15.24102
G1 X109.33 Y86.52 E15.25197
G1 X108.98 Y87.01 E15.26295
G1 X108.69 Y87.53 E15.27388
G1 X108.47 Y88.09 E15.28483
G1 X108.30 Y88.68 E15.29601
G1 X108.21 Y89.71 E15.31496
G1 X107.95 Y90.68 E15.33348
G1 X107.52 Y91.60 E15.35195
G1 X106.94 Y92.43 E15.37039
G1 X106.21 Y93.16 E15.38933
G1 X106.25 Y93.36 E15.39316
G1 X106.78 Y93.61 E15.40377
G1 X107.40 Y93.96 E15.41693
G1 X108.03 Y94.37 E15.43062
G1 X108.60 Y94.81 E15.44377
G1 X109.12 Y95.30 E15.45686
G1 X109.63 Y95.83 E15.47040
G1 X110.09 Y96.40 E15.48369
G1 X110.50 Y97.01 E15.49717
G1 X110.86 Y97.64 E15.51041
G1 X111.18 Y98.32 E15.52412
G1 X111.44 Y98.99 E15.53726
G1 X111.65 Y99.69 E15.55070
G1 X111.82 Y100.49 E15.56569
G1 X111.93 Y100.58 E15.56830
G1 X118.58 Y100.58 E15.69000
G1 X118.70 Y100.46 E15.69306
G1 X118.69 Y88.66 E15.90897
G1 X118.53 Y88.08 E15.92006
G1 X118.30 Y87.52 E15.93103
G1 X118.01 Y87.00 E15.94197
G1 X117.67 Y86.51 E15.95294
G0 F4800 X117.89 Y86.31
G0 X119.09 Y88.58
G0 X119.08 Y100.62
G0 X118.74 Y100.96
G0 X111.79 Y100.97
G0 X111.27 Y99.81
G0 X105.91 Y93.62
G0 X105.81 Y93.03
G0 X108.21 Y87.74
G0 X106.44 Y88.00
G0 X106.14 Y88.05
G1 F1200 X105.98 Y87.44 E15.96442
G1 X105.97 Y87.43 E15.96475
G1 X105.70 Y86.84 E15.97653
G1 X105.34 Y86.33 E15.98803
G1 X105.33 Y86.32 E15.98834
G1 X104.86 Y85.86 E16.00027
G1 X104.33 Y85.49 E16.01207
G1 X103.75 Y85.22 E16.02386
G1 X103.13 Y85.06 E16.03552
G1 X102.51 Y85.00 E16.04700
G1 X102.49 Y85.00 E16.04733
G1 X101.84 Y85.06 E16.05927
G1 X101.22 Y85.23 E16.07106
G1 X100.64 Y85.51 E16.08284
G1 X100.13 Y85.86 E16.09419
G1 X100.11 Y85.87 E16.09450
G1 X99.66 Y86.33 E16.10630
G1 X99.29 Y86.86 E16.11810
G1 X99.03 Y87.43 E16.12957
G1 X99.02 Y87.44 E16.12990
G1 X98.85 Y88.07 E16.14171
G1 X98.80 Y88.69 E16.15319
G1 X98.80 Y88.71 E16.15350
G1 X98.86 Y89.35 E16.16529
G1 X99.02 Y89.96 E16.17679
G1 X99.03 Y89.98 E16.17712
G1 X99.29 Y90.54 E16.18858
G1 X99.30 Y90.56 E16.18889
G1 X99.66 Y91.07 E16.20038
G1 X99.67 Y91.09 E16.20069
G1 X100.13 Y91.54 E16.21262
G1 X100.67 Y91.91 E16.22444
G1 X101.25 Y92.18 E16.23623
G1 X101.86 Y92.35 E16.24786
G1 X102.49 Y92.40 E16.25934
G1 X102.51 Y92.40 E16.25969
G1 X103.16 Y92.34 E16.27163
G1 X103.76 Y92.18 E16.28309
G1 X103.78 Y92.17 E16.28342
G1 X104.36 Y91.90 E16.29520
G1 X104.87 Y91.54 E16.30656
G1 X104.89 Y91.53 E16.30687
G1 X105.34 Y91.07 E16.31867
G1 X105.70 Y90.56 E16.33015
G1 X105.71 Y90.54 E16.33046
G1 X105.97 Y89.98 E16.34193
G1 X105.98 Y89.96 E16.34226
G1 X106.14 Y89.33 E16.35409
G1 X106.20 Y88.71 E16.36554
G1 X106.20 Y88.69 E16.36586
G1 X106.14 Y88.05 E16.37766
G0 F4800 X106.44 Y88.00
G0 X106.34 Y90.13
G0 X105.11 Y91.86
G0 X103.19 Y92.74
G0 X101.08 Y92.55
G0 X99.08 Y93.21
G0 X98.79 Y93.16
G1 F1200 X98.06 Y92.43 E16.39649
G1 X97.48 Y91.60 E16.41509
G1 X97.05 Y90.68 E16.43350
G1 X96.79 Y89.71 E16.45202
G1 X96.69 Y88.66 E16.47132
G1 X96.53 Y88.08 E16.48234
G1 X96.30 Y87.52 E16.49330
G1 X96.01 Y87.00 E16.50424
G1 X95.67 Y86.51 E16.51522
G1 X95.25 Y86.05 E16.52655
G1 X94.80 Y85.65 E16.53748
G1 X94.32 Y85.31 E16.54842
G1 X93.79 Y85.02 E16.55936
G1 X93.24 Y84.79 E16.57032
G1 X92.66 Y84.63 E16.58126
G1 X92.09 Y84.53 E16.59183
G1 X91.49 Y84.50 E16.60279
G1 X90.87 Y84.54 E16.61413
G1 X90.29 Y84.64 E16.62506
G1 X89.71 Y84.81 E16.63599
G1 X89.16 Y85.04 E16.64695
G1 X88.64 Y85.34 E16.65791
G1 X88.15 Y85.69 E16.66883
G1 X87.72 Y86.07 E16.67939
G1 X87.33 Y86.52 E16.69034
G1 X86.98 Y87.01 E16.70131
G1 X86.69 Y87.53 E16.71224
G1 X86.47 Y88.09 E16.72319
G1 X86.30 Y88.69 E16.73460
G1 X86.30 Y100.46 E16.95001
G1 X86.42 Y100.58 E16.95305
G1 X93.07 Y100.58 E17.07475
G1 X93.18 Y100.49 E17.07736
G1 X93.35 Y99.69 E17.09236
G1 X93.56 Y99.00 E17.10562
G1 X93.82 Y98.31 E17.11908
G1 X94.14 Y97.64 E17.13264
G1 X94.50 Y97.01 E17.14589
G1 X94.92 Y96.40 E17.15938
G1 X95.38 Y95.82 E17.17294
G1 X95.89 Y95.28 E17.18665
G1 X96.44 Y94.78 E17.20014
G1 X97.02 Y94.33 E17.21361
G1 X97.63 Y93.94 E17.22685
G1 X98.27 Y93.58 E17.24022
G1 X98.75 Y93.36 E17.24988
G1 X98.79 Y93.16 E17.25371
G0 F4800 X99.08 Y93.21
G0 X99.56 Y94.91
G0 X99.67 Y95.19
G1 F1200 X99.15 Y95.43 E17.26421
G1 X98.65 Y95.71 E17.27470
G1 X98.19 Y96.02 E17.28486
G1 X97.73 Y96.38 E17.29560
G1 X96.92 Y97.17 E17.31637
G1 X96.23 Y98.10 E17.33739
G1 X95.95 Y98.60 E17.34792
G1 X95.70 Y99.12 E17.35842
G1 X95.50 Y99.65 E17.36898
G1 X95.30 Y100.34 E17.38199
G1 X95.30 Y109.69 E17.55307
G1 X95.42 Y109.81 E17.55611
G1 X96.30 Y109.81 E17.57223
G1 X96.40 Y110.15 E17.57872
G1 X96.62 Y110.59 E17.58780
G1 X96.88 Y111.02 E17.59690
G1 X97.46 Y111.80 E17.61475
G1 X97.81 Y112.16 E17.62390
G1 X98.18 Y112.50 E17.63320
G1 X98.50 Y112.70 E17.63999
G1 X98.50 Y116.35 E17.70669
G1 X98.52 Y116.76 E17.71427
G1 X98.59 Y117.17 E17.72194
G1 X98.70 Y117.58 E17.72963
G1 X98.85 Y117.97 E17.73728
G1 X99.04 Y118.34 E17.74492
G1 X99.27 Y118.69 E17.75259
G1 X99.53 Y119.02 E17.76026
G1 X99.84 Y119.32 E17.76818
G1 X100.17 Y119.59 E17.77586
G1 X100.52 Y119.81 E17.78349
G1 X100.89 Y120.00 E17.79116
G1 X101.28 Y120.15 E17.79882
G1 X101.69 Y120.25 E17.80645
G1 X102.09 Y120.32 E17.81385
G1 X102.52 Y120.34 E17.82178
G1 X102.94 Y120.31 E17.82945
G1 X103.35 Y120.25 E17.83710
G1 X103.75 Y120.14 E17.84474
G1 X104.15 Y119.98 E17.85243
G1 X104.52 Y119.79 E17.86006
G1 X104.87 Y119.56 E17.86771
G1 X105.17 Y119.31 E17.87494
G1 X105.47 Y119.01 E17.88276
G1 X105.74 Y118.68 E17.89043
G1 X105.96 Y118.35 E17.89779
G1 X106.16 Y117.96 E17.90575
G1 X106.31 Y117.57 E17.91339
G1 X106.41 Y117.16 E17.92108
G1 X106.48 Y116.75 E17.92872
G1 X106.50 Y112.70 E18.00285
G1 X106.84 Y112.49 E18.01017
G1 X107.54 Y111.79 E18.02817
G1 X107.85 Y111.41 E18.03715
G1 X108.14 Y111.01 E18.04627
G1 X108.60 Y110.15 E18.06401
G1 X108.70 Y109.81 E18.07059
G1 X109.58 Y109.81 E18.08669
G1 X109.70 Y109.69 E18.08974
G1 X109.70 Y100.34 E18.26082
G1 X109.50 Y99.65 E18.27400
G1 X109.30 Y99.11 E18.28452
G1 X108.76 Y98.09 E18.30564
G1 X108.09 Y97.18 E18.32631
G1 X107.67 Y96.74 E18.33745
G1 X107.26 Y96.36 E18.34759
G1 X106.79 Y96.00 E18.35847
G1 X106.30 Y95.68 E18.36911
G1 X105.28 Y95.17 E18.38998
G1 X104.19 Y94.82 E18.41089
G1 X103.62 Y94.71 E18.42153
G1 X103.08 Y94.65 E18.43153
G1 X102.48 Y94.63 E18.44242
G1 X101.90 Y94.65 E18.45310
G1 X101.33 Y94.72 E18.46361
G1 X100.77 Y94.83 E18.47412
G1 X100.22 Y94.99 E18.48449
G1 X99.67 Y95.19 E18.49516
G0 F4800 X99.56 Y94.91
G0 X102.49 Y94.23
G0 X105.46 Y94.81
G0 X107.96 Y96.46
G0 X109.67 Y98.96
G0 X110.10 Y100.34
G0 X111.50 Y102.30
G0 X111.80 Y102.30
G1 F1200 X111.80 Y119.42 E18.80838
G1 X111.92 Y119.54 E18.81142
G1 X118.08 Y119.54 E18.92420
G1 X118.20 Y119.42 E18.92725
G1 X118.20 Y102.30 E19.24047
G1 X118.08 Y102.18 E19.24351
G1 X111.92 Y102.18 E19.35629
G1 X111.80 Y102.30 E19.35932
G0 F4800 X111.50 Y102.30
G0 X108.38 Y96.91
G0 X106.49 Y95.33
G0 X103.67 Y94.32
G0 X100.67 Y94.45
G0 X97.95 Y95.70
G0 X95.89 Y97.89
G0 X94.90 Y100.34
G0 X93.50 Y102.30
G0 X93.20 Y102.30
G1 F1200 X93.08 Y102.18 E19.36236
G1 X86.92 Y102.18 E19.47514
G1 X86.80 Y102.30 E19.47817
G1 X86.80 Y119.42 E19.79139
G1 X86.92 Y119.54 E19.79443
G1 X93.08 Y119.54 E19.90720
G1 X93.20 Y119.42 E19.91026
G1 X93.20 Y102.30 E20.22348
G0 F4800 X93.74 Y102.51
;TYPE:FILL
G1 F1200 X94.77 Y103.53 E20.25005
G0 F4800 X94.76 Y104.10
G1 F1200 X93.74 Y103.07 E20.27659
