;Generated with Cura_SteamEngine 13.11
M109 S210     ;Heatup to 210C
G21           ;metric values
G90           ;absolute positioning
G28           ;Home
G1 Z15.0 F300 ;move the platform down 15mm
G92 E0        ;zero the extruded length
G1 F200 E5    ;extrude 5mm of feed stock
G92 E0        ;zero the extruded length again

;total_layers=399
;LAYER:0
M107
G0 F4800 X76.30 Y79.93 Z0.30
;TYPE:SKIRT
G1 F2700 E0.00000
G1 F1200 X79.93 Y76.30 E0.09394
G1 X125.07 Y76.30 E0.91961
G1 X128.70 Y79.93 E1.01356
G1 X128.70 Y125.07 E1.83927
G1 X125.07 Y128.70 E1.93324
G1 X79.93 Y128.70 E2.75891
G1 X76.30 Y125.07 E2.85286
G1 X76.30 Y79.93 E3.67857
G0 F4800 X83.00 Y82.91
G0 X83.10 Y83.10
;TYPE:WALL-INNER
G1 F1200 X121.90 Y83.10 E4.38832
G1 X121.90 Y121.90 E5.09811
G1 X83.10 Y121.90 E5.80786
G1 X83.10 Y83.10 E6.51764
G0 F4800 X82.70 Y82.70
;TYPE:WALL-OUTER
G1 F1200 X122.30 Y82.70 E7.24203
G1 X122.30 Y122.30 E7.96645
G1 X82.70 Y122.30 E8.69083
G1 X82.70 Y82.70 E9.41525
G0 F4800 X83.52 Y83.24
;TYPE:FILL
G1 F1200 X121.76 Y121.47 E10.40445
G0 F4800 X121.76 Y121.47
G1 F1200 X121.76 Y120.91 E10.41481
G0 F4800 X121.76 Y120.91
G1 F1200 X84.09 Y83.24 E11.38936
G0 F4800 X84.65 Y83.24
G1 F1200 X121.76 Y120.34 E12.34927
G0 F4800 X121.76 Y120.34
G1 F1200 X121.76 Y119.78 E12.35961
G0 F4800 X121.76 Y119.78
G1 F1200 X85.22 Y83.24 E13.30490
G0 F4800 X85.79 Y83.24
G1 F1200 X121.76 Y119.21 E14.23556
G0 F4800 X121.76 Y119.21
G1 F1200 X121.76 Y118.65 E14.24591
G0 F4800 X121.76 Y118.65
G1 F1200 X86.35 Y83.24 E15.16192
G0 F4800 X86.92 Y83.24
G1 F1200 X121.76 Y118.08 E16.06331
G0 F4800 X121.76 Y118.08
G1 F1200 X121.76 Y117.51 E16.07366
G0 F4800 X121.76 Y117.51
G1 F1200 X87.48 Y83.24 E16.96041
G0 F4800 X88.05 Y83.24
G1 F1200 X121.76 Y116.95 E17.83252
G0 F4800 X121.76 Y116.95
G1 F1200 X121.76 Y116.38 E17.84286
G0 F4800 X121.76 Y116.38
G1 F1200 X88.61 Y83.24 E18.70035
G0 F4800 X89.18 Y83.24
G1 F1200 X121.76 Y115.82 E19.54319
G0 F4800 X121.76 Y115.82
G1 F1200 X121.76 Y115.25 E19.55355
G0 F4800 X121.76 Y115.25
G1 F1200 X89.75 Y83.24 E20.38175
G0 F4800 X90.31 Y83.24
G1 F1200 X121.76 Y114.69 E21.19534
G0 F4800 X121.76 Y114.69
G1 F1200 X121.76 Y114.12 E21.20569
G0 F4800 X121.76 Y114.12
G1 F1200 X90.88 Y83.24 E22.00463
G0 F4800 X91.44 Y83.24
G1 F1200 X121.76 Y113.56 E22.78893
G0 F4800 X121.76 Y113.56
G1 F1200 X121.76 Y112.99 E22.79927
G0 F4800 X121.76 Y112.99
G1 F1200 X92.01 Y83.24 E23.56894
G0 F4800 X92.57 Y83.24
G1 F1200 X121.76 Y112.42 E24.32398
G0 F4800 X121.76 Y112.42
G1 F1200 X121.76 Y111.86 E24.33434
G0 F4800 X121.76 Y111.86
G1 F1200 X93.14 Y83.24 E25.07473
G0 F4800 X93.71 Y83.24
G1 F1200 X121.76 Y111.29 E25.80049
G0 F4800 X121.76 Y111.29
G1 F1200 X121.76 Y110.73 E25.81082
G0 F4800 X121.76 Y110.73
G1 F1200 X94.27 Y83.24 E26.52196
G0 F4800 X94.84 Y83.24
G1 F1200 X121.76 Y110.16 E27.21846
G0 F4800 X121.76 Y110.16
G1 F1200 X121.76 Y109.60 E27.22881
G0 F4800 X121.76 Y109.60
G1 F1200 X95.40 Y83.24 E27.91066
G0 F4800 X95.97 Y83.24
G1 F1200 X121.76 Y109.03 E28.57790
G0 F4800 X121.76 Y109.03
G1 F1200 X121.76 Y108.46 E28.58825
G0 F4800 X121.76 Y108.46
G1 F1200 X96.53 Y83.24 E29.24084
G0 F4800 X97.10 Y83.24
G1 F1200 X121.76 Y107.90 E29.87879
G0 F4800 X121.76 Y107.90
G1 F1200 X121.76 Y107.33 E29.88913
G0 F4800 X121.76 Y107.33
G1 F1200 X97.66 Y83.24 E30.51246
G0 F4800 X98.23 Y83.24
G1 F1200 X121.76 Y106.77 E31.12115
G0 F4800 X121.76 Y106.77
G1 F1200 X121.76 Y106.20 E31.13151
G0 F4800 X121.76 Y106.20
G1 F1200 X98.80 Y83.24 E31.72555
G0 F4800 X99.36 Y83.24
G1 F1200 X121.76 Y105.64 E32.30498
G0 F4800 X121.76 Y105.64
G1 F1200 X121.76 Y105.07 E32.31534
G0 F4800 X121.76 Y105.07
G1 F1200 X99.93 Y83.24 E32.88012
G0 F4800 X100.49 Y83.24
G1 F1200 X121.76 Y104.50 E33.43027
G0 F4800 X121.76 Y104.50
G1 F1200 X121.76 Y103.94 E33.44060
G0 F4800 X121.76 Y103.94
G1 F1200 X101.06 Y83.24 E33.97613
G0 F4800 X101.62 Y83.24
G1 F1200 X121.76 Y103.37 E34.49701
G0 F4800 X121.76 Y103.37
G1 F1200 X121.76 Y102.81 E34.50737
G0 F4800 X121.76 Y102.81
G1 F1200 X102.19 Y83.24 E35.01361
G0 F4800 X102.76 Y83.24
G1 F1200 X121.76 Y102.24 E35.50520
G0 F4800 X121.76 Y102.24
G1 F1200 X121.76 Y101.68 E35.51554
G0 F4800 X121.76 Y101.68
G1 F1200 X103.32 Y83.24 E35.99252
G0 F4800 X103.89 Y83.24
G1 F1200 X121.76 Y101.11 E36.45486
G0 F4800 X121.76 Y101.11
G1 F1200 X121.76 Y100.54 E36.46521
G0 F4800 X121.76 Y100.54
G1 F1200 X104.45 Y83.24 E36.91291
G0 F4800 X105.02 Y83.24
G1 F1200 X121.76 Y99.98 E37.34599
G0 F4800 X121.76 Y99.98
G1 F1200 X121.76 Y99.41 E37.35634
G0 F4800 X121.76 Y99.41
G1 F1200 X105.58 Y83.24 E37.77477
G0 F4800 X106.15 Y83.24
G1 F1200 X121.76 Y98.85 E38.17857
G0 F4800 X121.76 Y98.85
G1 F1200 X121.76 Y98.28 E38.18890
G0 F4800 X121.76 Y98.28
G1 F1200 X106.71 Y83.24 E38.57808
G0 F4800 X107.28 Y83.24
G1 F1200 X121.76 Y97.72 E38.95261
G0 F4800 X121.76 Y97.72
G1 F1200 X121.76 Y97.15 E38.96296
G0 F4800 X121.76 Y97.15
G1 F1200 X107.85 Y83.24 E39.32285
G0 F4800 X108.41 Y83.24
G1 F1200 X121.76 Y96.58 E39.66813
G0 F4800 X121.76 Y96.58
G1 F1200 X121.76 Y96.02 E39.67848
G0 F4800 X121.76 Y96.02
G1 F1200 X108.98 Y83.24 E40.00911
G0 F4800 X109.54 Y83.24
G1 F1200 X121.76 Y95.45 E40.32510
G0 F4800 X121.76 Y95.45
G1 F1200 X121.76 Y94.89 E40.33543
G0 F4800 X121.76 Y94.89
G1 F1200 X110.11 Y83.24 E40.63680
G0 F4800 X110.68 Y83.24
G1 F1200 X121.76 Y94.32 E40.92353
G0 F4800 X121.76 Y94.32
G1 F1200 X121.76 Y93.76 E40.93388
G0 F4800 X121.76 Y93.76
G1 F1200 X111.24 Y83.24 E41.20597
G0 F4800 X111.81 Y83.24
G1 F1200 X121.76 Y93.19 E41.46342
G0 F4800 X121.76 Y93.19
G1 F1200 X121.76 Y92.63 E41.47377
G0 F4800 X121.76 Y92.63
G1 F1200 X112.37 Y83.24 E41.71660
G0 F4800 X112.94 Y83.24
G1 F1200 X121.76 Y92.06 E41.94478
G0 F4800 X121.76 Y92.06
G1 F1200 X121.76 Y91.49 E41.95513
G0 F4800 X121.76 Y91.49
G1 F1200 X113.50 Y83.24 E42.16867
G0 F4800 X114.07 Y83.24
G1 F1200 X121.76 Y90.93 E42.36759
G0 F4800 X121.76 Y90.93
G1 F1200 X121.76 Y90.36 E42.37795
G0 F4800 X121.76 Y90.36
G1 F1200 X114.64 Y83.24 E42.56222
G0 F4800 X115.20 Y83.24
G1 F1200 X121.76 Y89.80 E42.73186
G0 F4800 X121.76 Y89.80
G1 F1200 X121.76 Y89.23 E42.74219
G0 F4800 X121.76 Y89.23
G1 F1200 X115.77 Y83.24 E42.89721
G0 F4800 X116.33 Y83.24
G1 F1200 X121.76 Y88.67 E43.03759
G0 F4800 X121.76 Y88.67
G1 F1200 X121.76 Y88.10 E43.04794
G0 F4800 X121.76 Y88.10
G1 F1200 X116.90 Y83.24 E43.17367
G0 F4800 X117.46 Y83.24
G1 F1200 X121.76 Y87.53 E43.28479
G0 F4800 X121.76 Y87.53
G1 F1200 X121.76 Y86.97 E43.29514
G0 F4800 X121.76 Y86.97
G1 F1200 X118.03 Y83.24 E43.39162
G0 F4800 X118.60 Y83.24
G1 F1200 X121.76 Y86.40 E43.47345
G0 F4800 X121.76 Y86.40
G1 F1200 X121.76 Y85.84 E43.48378
G0 F4800 X121.76 Y85.84
G1 F1200 X119.16 Y83.24 E43.55099
G0 F4800 X119.73 Y83.24
G1 F1200 X121.76 Y85.27 E43.60356
G0 F4800 X121.76 Y85.27
G1 F1200 X121.76 Y84.71 E43.61392
G0 F4800 X121.76 Y84.71
G1 F1200 X120.29 Y83.24 E43.65184
G0 F4800 X120.86 Y83.24
G1 F1200 X121.76 Y84.14 E43.67515
G0 F4800 X121.76 Y84.14
G1 F1200 X121.76 Y83.57 E43.68551
G1 X121.42 Y83.24 E43.69417
G0 F4800 X83.24 Y83.52
G1 F1200 X121.48 Y121.76 E44.68337
G0 F4800 X120.91 Y121.76
G1 F1200 X83.24 Y84.09 E45.65794
G0 F4800 X83.24 Y84.09
G1 F1200 X83.24 Y84.65 E45.66828
G0 F4800 X83.24 Y84.65
G1 F1200 X120.35 Y121.76 E46.62821
G0 F4800 X119.78 Y121.76
G1 F1200 X83.24 Y85.22 E47.57351
G0 F4800 X83.24 Y85.22
G1 F1200 X83.24 Y85.79 E47.58386
G0 F4800 X83.24 Y85.79
G1 F1200 X119.21 Y121.76 E48.51452
G0 F4800 X118.65 Y121.76
G1 F1200 X83.24 Y86.35 E49.43055
G0 F4800 X83.24 Y86.35
G1 F1200 X83.24 Y86.92 E49.44090
G0 F4800 X83.24 Y86.92
G1 F1200 X118.08 Y121.76 E50.34230
G0 F4800 X117.52 Y121.76
G1 F1200 X83.24 Y87.48 E51.22905
G0 F4800 X83.24 Y87.48
G1 F1200 X83.24 Y88.05 E51.23938
G0 F4800 X83.24 Y88.05
G1 F1200 X116.95 Y121.76 E52.11151
G0 F4800 X116.39 Y121.76
G1 F1200 X83.24 Y88.61 E52.96900
G0 F4800 X83.24 Y88.61
G1 F1200 X83.24 Y89.18 E52.97936
G0 F4800 X83.24 Y89.18
G1 F1200 X115.82 Y121.76 E53.82220
G0 F4800 X115.25 Y121.76
G1 F1200 X83.24 Y89.75 E54.65043
G0 F4800 X83.24 Y89.75
G1 F1200 X83.24 Y90.31 E54.66079
G0 F4800 X83.24 Y90.31
G1 F1200 X114.69 Y121.76 E55.47437
G0 F4800 X114.12 Y121.76
G1 F1200 X83.24 Y90.88 E56.27332
G0 F4800 X83.24 Y90.88
G1 F1200 X83.24 Y91.44 E56.28367
G0 F4800 X83.24 Y91.44
G1 F1200 X113.56 Y121.76 E57.06798
G0 F4800 X112.99 Y121.76
G1 F1200 X83.24 Y92.01 E57.83767
G0 F4800 X83.24 Y92.01
G1 F1200 X83.24 Y92.57 E57.84802
G0 F4800 X83.24 Y92.57
G1 F1200 X112.43 Y121.76 E58.60306
G0 F4800 X111.86 Y121.76
G1 F1200 X83.24 Y93.14 E59.34347
G0 F4800 X83.24 Y93.14
G1 F1200 X83.24 Y93.71 E59.35381
G0 F4800 X83.24 Y93.71
G1 F1200 X111.29 Y121.76 E60.07959
G0 F4800 X110.73 Y121.76
G1 F1200 X83.24 Y94.27 E60.79073
G0 F4800 X83.24 Y94.27
G1 F1200 X83.24 Y94.84 E60.80108
G0 F4800 X83.24 Y94.84
G1 F1200 X110.16 Y121.76 E61.49758
G0 F4800 X109.60 Y121.76
G1 F1200 X83.24 Y95.40 E62.17946
G0 F4800 X83.24 Y95.40
G1 F1200 X83.24 Y95.97 E62.18981
G0 F4800 X83.24 Y95.97
G1 F1200 X109.03 Y121.76 E62.85704
G0 F4800 X108.46 Y121.76
G1 F1200 X83.24 Y96.53 E63.50964
G0 F4800 X83.24 Y96.53
G1 F1200 X83.24 Y97.10 E63.51997
G0 F4800 X83.24 Y97.10
G1 F1200 X107.90 Y121.76 E64.15795
G0 F4800 X107.33 Y121.76
G1 F1200 X83.24 Y97.67 E64.78128
G0 F4800 X83.24 Y97.67
G1 F1200 X83.24 Y98.23 E64.79163
G0 F4800 X83.24 Y98.23
G1 F1200 X106.77 Y121.76 E65.40032
G0 F4800 X106.20 Y121.76
G1 F1200 X83.24 Y98.80 E65.99440
G0 F4800 X83.24 Y98.80
G1 F1200 X83.24 Y99.36 E66.00475
G0 F4800 X83.24 Y99.36
G1 F1200 X105.64 Y121.76 E66.58418
G0 F4800 X105.07 Y121.76
G1 F1200 X83.24 Y99.93 E67.14897
G0 F4800 X83.24 Y99.93
G1 F1200 X83.24 Y100.49 E67.15932
G0 F4800 X83.24 Y100.49
G1 F1200 X104.51 Y121.76 E67.70948
G0 F4800 X103.94 Y121.76
G1 F1200 X83.24 Y101.06 E68.24500
G0 F4800 X83.24 Y101.06
G1 F1200 X83.24 Y101.63 E68.25536
G0 F4800 X83.24 Y101.63
G1 F1200 X103.37 Y121.76 E68.77624
G0 F4800 X102.81 Y121.76
G1 F1200 X83.24 Y102.19 E69.28249
G0 F4800 X83.24 Y102.19
G1 F1200 X83.24 Y102.76 E69.29283
G0 F4800 X83.24 Y102.76
G1 F1200 X102.24 Y121.76 E69.78445
G0 F4800 X101.68 Y121.76
G1 F1200 X83.24 Y103.32 E70.26143
G0 F4800 X83.24 Y103.32
G1 F1200 X83.24 Y103.89 E70.27179
G0 F4800 X83.24 Y103.89
G1 F1200 X101.11 Y121.76 E70.73414
G0 F4800 X100.55 Y121.76
G1 F1200 X83.24 Y104.45 E71.18186
G0 F4800 X83.24 Y104.45
G1 F1200 X83.24 Y105.02 E71.19221
G0 F4800 X83.24 Y105.02
G1 F1200 X99.98 Y121.76 E71.62529
G0 F4800 X99.41 Y121.76
G1 F1200 X83.24 Y105.58 E72.04373
G0 F4800 X83.24 Y105.58
G1 F1200 X83.24 Y106.15 E72.05406
G0 F4800 X83.24 Y106.15
G1 F1200 X98.85 Y121.76 E72.45788
G0 F4800 X98.28 Y121.76
G1 F1200 X83.24 Y106.72 E72.84706
G0 F4800 X83.24 Y106.72
G1 F1200 X83.24 Y107.28 E72.85741
G0 F4800 X83.24 Y107.28
G1 F1200 X97.72 Y121.76 E73.23194
G0 F4800 X97.15 Y121.76
G1 F1200 X83.24 Y107.85 E73.59186
G0 F4800 X83.24 Y107.85
G1 F1200 X83.24 Y108.41 E73.60221
G0 F4800 X83.24 Y108.41
G1 F1200 X96.59 Y121.76 E73.94749
G0 F4800 X96.02 Y121.76
G1 F1200 X83.24 Y108.98 E74.27811
G0 F4800 X83.24 Y108.98
G1 F1200 X83.24 Y109.54 E74.28845
G0 F4800 X83.24 Y109.54
G1 F1200 X95.46 Y121.76 E74.60446
G0 F4800 X94.89 Y121.76
G1 F1200 X83.24 Y110.11 E74.90583
G0 F4800 X83.24 Y110.11
G1 F1200 X83.24 Y110.68 E74.91619
G0 F4800 X83.24 Y110.68
G1 F1200 X94.32 Y121.76 E75.20291
G0 F4800 X93.76 Y121.76
G1 F1200 X83.24 Y111.24 E75.47501
G0 F4800 X83.24 Y111.24
G1 F1200 X83.24 Y111.81 E75.48535
G0 F4800 X83.24 Y111.81
G1 F1200 X93.19 Y121.76 E75.74281
G0 F4800 X92.63 Y121.76
G1 F1200 X83.24 Y112.37 E75.98564
G0 F4800 X83.24 Y112.37
G1 F1200 X83.24 Y112.94 E75.99599
G0 F4800 X83.24 Y112.94
G1 F1200 X92.06 Y121.76 E76.22418
G0 F4800 X91.50 Y121.76
G1 F1200 X83.24 Y113.50 E76.43775
G0 F4800 X83.24 Y113.50
G1 F1200 X83.24 Y114.07 E76.44810
G0 F4800 X83.24 Y114.07
G1 F1200 X90.93 Y121.76 E76.64702
G0 F4800 X90.36 Y121.76
G1 F1200 X83.24 Y114.64 E76.83131
G0 F4800 X83.24 Y114.64
G1 F1200 X83.24 Y115.20 E76.84165
G0 F4800 X83.24 Y115.20
G1 F1200 X89.80 Y121.76 E77.01131
G0 F4800 X89.23 Y121.76
G1 F1200 X83.24 Y115.77 E77.16633
G0 F4800 X83.24 Y115.77
G1 F1200 X83.24 Y116.33 E77.17668
G0 F4800 X83.24 Y116.33
G1 F1200 X88.67 Y121.76 E77.31706
G0 F4800 X88.10 Y121.76
G1 F1200 X83.24 Y116.90 E77.44282
G0 F4800 X83.24 Y116.90
G1 F1200 X83.24 Y117.46 E77.45317
G0 F4800 X83.24 Y117.46
G1 F1200 X87.54 Y121.76 E77.56429
G0 F4800 X86.97 Y121.76
G1 F1200 X83.24 Y118.03 E77.66076
G0 F4800 X83.24 Y118.03
G1 F1200 X83.24 Y118.60 E77.67109
G0 F4800 X83.24 Y118.60
G1 F1200 X86.40 Y121.76 E77.75295
G0 F4800 X85.84 Y121.76
G1 F1200 X83.24 Y119.16 E77.82016
G0 F4800 X83.24 Y119.16
G1 F1200 X83.24 Y119.73 E77.83052
G0 F4800 X83.24 Y119.73
G1 F1200 X85.27 Y121.76 E77.88309
G0 F4800 X84.71 Y121.76
G1 F1200 X83.24 Y120.29 E77.92103
G0 F4800 X83.24 Y120.29
G1 F1200 X83.24 Y120.86 E77.93136
G0 F4800 X83.24 Y120.86
G1 F1200 X84.14 Y121.76 E77.95467
G0 F4800 X83.57 Y121.76
G1 F1200 X83.24 Y121.42 E77.96334
;LAYER:1
M106 S127
G0 F12000 X83.10 Y121.90 Z0.40
;TYPE:WALL-INNER
G1 F1620 X83.10 Y83.10 E78.19993
G1 X121.90 Y83.10 E78.43652
G1 X121.90 Y121.90 E78.67311
G1 X83.10 Y121.90 E78.90969
G0 F12000 X82.70 Y122.30
;TYPE:WALL-OUTER
G1 F1620 X82.70 Y82.70 E79.15117
G1 X122.30 Y82.70 E79.39263
G1 X122.30 Y122.30 E79.63410
G1 X82.70 Y122.30 E79.87556
G0 F12000 X83.30 Y121.76
;TYPE:FILL
G1 F1620 X121.76 Y83.30 E80.20720
G0 F12000 X121.25 Y83.24
G1 F1620 X83.24 Y121.25 E80.53502
G0 F12000 X83.24 Y120.69
G1 F1620 X120.69 Y83.24 E80.85796
G0 F12000 X120.69 Y83.24
G1 F1620 X121.25 Y83.24 E80.86141
G0 F12000 X121.76 Y83.87
G1 F1620 X83.87 Y121.76 E81.18817
G0 F12000 X83.87 Y121.76
G1 F1620 X84.43 Y121.76 E81.19162
G0 F12000 X84.43 Y121.76
G1 F1620 X121.76 Y84.43 E81.51350
G0 F12000 X121.76 Y85.00
G1 F1620 X85.00 Y121.76 E81.83050
G0 F12000 X85.00 Y121.76
G1 F1620 X85.56 Y121.76 E81.83395
G0 F12000 X85.56 Y121.76
G1 F1620 X121.76 Y85.57 E82.14608
G0 F12000 X121.76 Y86.13
G1 F1620 X86.13 Y121.76 E82.45332
G0 F12000 X86.13 Y121.76
G1 F1620 X86.69 Y121.76 E82.45677
G0 F12000 X86.69 Y121.76
G1 F1620 X121.76 Y86.70 E82.75914
G0 F12000 X121.76 Y87.26
G1 F1620 X87.26 Y121.76 E83.05663
G0 F12000 X87.26 Y121.76
G1 F1620 X87.83 Y121.76 E83.06008
G0 F12000 X87.83 Y121.76
G1 F1620 X121.76 Y87.83 E83.35269
G0 F12000 X121.76 Y88.39
G1 F1620 X88.39 Y121.76 E83.64042
G0 F12000 X88.39 Y121.76
G1 F1620 X88.96 Y121.76 E83.64387
G0 F12000 X88.96 Y121.76
G1 F1620 X121.76 Y88.96 E83.92673
G0 F12000 X121.76 Y89.53
G1 F1620 X89.52 Y121.76 E84.20471
G0 F12000 X89.52 Y121.76
G1 F1620 X90.09 Y121.76 E84.20816
G0 F12000 X90.09 Y121.76
G1 F1620 X121.76 Y90.09 E84.48125
G0 F12000 X121.76 Y90.66
G1 F1620 X90.65 Y121.76 E84.74947
G0 F12000 X90.65 Y121.76
G1 F1620 X91.22 Y121.76 E84.75293
G0 F12000 X91.22 Y121.76
G1 F1620 X121.76 Y91.22 E85.01626
G0 F12000 X121.76 Y91.79
G1 F1620 X91.79 Y121.76 E85.27473
G0 F12000 X91.79 Y121.76
G1 F1620 X92.35 Y121.76 E85.27818
G0 F12000 X92.35 Y121.76
G1 F1620 X121.76 Y92.35 E85.53176
G0 F12000 X121.76 Y92.92
G1 F1620 X92.92 Y121.76 E85.78047
G0 F12000 X92.92 Y121.76
G1 F1620 X93.48 Y121.76 E85.78392
G0 F12000 X93.48 Y121.76
G1 F1620 X121.76 Y93.49 E86.02774
G0 F12000 X121.76 Y94.05
G1 F1620 X94.05 Y121.76 E86.26670
G0 F12000 X94.05 Y121.76
G1 F1620 X94.61 Y121.76 E86.27015
G0 F12000 X94.61 Y121.76
G1 F1620 X121.76 Y94.62 E86.50422
G0 F12000 X121.76 Y95.18
G1 F1620 X95.18 Y121.76 E86.73341
G0 F12000 X95.18 Y121.76
G1 F1620 X95.75 Y121.76 E86.73686
G0 F12000 X95.75 Y121.76
G1 F1620 X121.76 Y95.75 E86.96118
G0 F12000 X121.76 Y96.31
G1 F1620 X96.31 Y121.76 E87.18062
G0 F12000 X96.31 Y121.76
G1 F1620 X96.88 Y121.76 E87.18406
G0 F12000 X96.88 Y121.76
G1 F1620 X121.76 Y96.88 E87.39862
G0 F12000 X121.76 Y97.44
G1 F1620 X97.44 Y121.76 E87.60831
G0 F12000 X97.44 Y121.76
G1 F1620 X98.01 Y121.76 E87.61176
G0 F12000 X98.01 Y121.76
G1 F1620 X121.76 Y98.01 E87.81656
G0 F12000 X121.76 Y98.58
G1 F1620 X98.57 Y121.76 E88.01648
G0 F12000 X98.57 Y121.76
G1 F1620 X99.14 Y121.76 E88.01994
G0 F12000 X99.14 Y121.76
G1 F1620 X121.76 Y99.14 E88.21498
G0 F12000 X121.76 Y99.71
G1 F1620 X99.71 Y121.76 E88.40515
G0 F12000 X99.71 Y121.76
G1 F1620 X100.27 Y121.76 E88.40859
G0 F12000 X100.27 Y121.76
G1 F1620 X121.76 Y100.27 E88.59389
