;Generated with Cura_SteamEngine 13.11
M109 S210     ;Heatup to 210C
G21           ;metric values
G90           ;absolute positioning
G28           ;Home
G1 Z15.0 F300 ;move the platform down 15mm
G92 E0        ;zero the extruded length
G1 F200 E5    ;extrude 5mm of feed stock
G92 E0        ;zero the extruded length again

;total_layers=399
;LAYER:0
M107
G0 F4800 X92.50 Y90.44 Z0.30
;TYPE:SKIRT
G1 F2700 E0.00000
G1 F1200 X94.44 Y89.64 E0.03845
G1 X94.79 Y89.41 E0.04600
G1 X96.83 Y88.90 E0.08452
G1 X97.29 Y88.79 E0.09317
G1 X97.80 Y88.53 E0.10373
G1 X98.13 Y88.39 E0.11012
G1 X98.51 Y88.25 E0.11772
G1 X98.83 Y88.15 E0.12377
G1 X99.82 Y87.91 E0.14243
G1 X100.86 Y87.65 E0.16197
G1 X102.18 Y87.10 E0.18809
G1 X104.75 Y87.10 E0.23512
G1 X105.94 Y87.34 E0.25737
G1 X107.33 Y87.91 E0.28479
G1 X107.48 Y88.01 E0.28826
G1 X108.54 Y88.16 E0.30774
G1 X110.50 Y89.23 E0.34868
G1 X111.64 Y90.54 E0.38027
G1 X111.84 Y90.68 E0.38491
G1 X113.61 Y92.45 E0.43055
G1 X114.28 Y93.46 E0.45279
G1 X114.29 Y93.47 E0.45297
G1 X114.68 Y94.06 E0.46599
G1 X114.79 Y94.33 E0.47129
G1 X114.88 Y94.46 E0.47421
G1 X114.93 Y94.57 E0.47648
G1 X115.41 Y95.05 E0.48877
G1 X116.08 Y96.06 E0.51102
G1 X116.66 Y97.44 E0.53846
G1 X116.66 Y97.47 E0.53891
G1 X116.97 Y97.84 E0.54772
G1 X117.70 Y99.87 E0.58720
G1 X117.70 Y104.93 E0.67973
G1 X116.97 Y106.96 E0.71921
G1 X116.66 Y107.33 E0.72802
G1 X116.66 Y107.36 E0.72847
G1 X116.08 Y108.74 E0.75585
G1 X115.41 Y109.74 E0.77801
G1 X114.93 Y110.23 E0.79046
G1 X114.88 Y110.34 E0.79272
G1 X114.79 Y110.47 E0.79563
G1 X114.68 Y110.74 E0.80094
G1 X114.29 Y111.33 E0.81398
G1 X114.28 Y111.34 E0.81408
G1 X113.61 Y112.34 E0.83623
G1 X112.88 Y113.07 E0.85507
G1 X112.47 Y113.49 E0.86573
G1 X111.83 Y114.12 E0.88217
G1 X111.64 Y114.26 E0.88668
G1 X110.50 Y115.57 E0.91822
G1 X108.54 Y116.64 E0.95912
G1 X107.48 Y116.79 E0.97869
G1 X107.34 Y116.88 E0.98190
G1 X105.96 Y117.46 E1.00927
G1 X104.75 Y117.70 E1.03171
G1 X102.17 Y117.70 E1.07887
G1 X100.84 Y117.15 E1.10521
G1 X99.83 Y116.89 E1.12441
G1 X99.82 Y116.89 E1.12445
G1 X98.83 Y116.64 E1.14327
G1 X98.51 Y116.55 E1.14926
G1 X98.13 Y116.40 E1.15682
G1 X97.80 Y116.27 E1.16322
G1 X97.29 Y116.01 E1.17367
G1 X96.82 Y115.89 E1.18250
G1 X96.82 Y115.89 E1.18251
G1 X94.78 Y115.38 E1.22101
G1 X94.46 Y115.17 E1.22816
G1 X92.49 Y114.35 E1.26703
G1 X90.34 Y112.20 E1.32277
G1 X89.78 Y110.84 E1.34967
G1 X89.69 Y110.75 E1.35202
G1 X89.01 Y109.73 E1.37446
G1 X88.44 Y108.34 E1.40188
G1 X88.20 Y107.15 E1.42413
G1 X88.20 Y107.07 E1.42546
G1 X87.80 Y105.66 E1.45236
G1 X87.80 Y104.76 E1.46885
G1 X87.60 Y103.75 E1.48770
G1 X87.60 Y101.05 E1.53702
G1 X87.80 Y100.04 E1.55587
G1 X87.80 Y99.14 E1.57235
G1 X88.20 Y97.72 E1.59925
G1 X88.20 Y97.65 E1.60059
G1 X88.44 Y96.46 E1.62283
G1 X89.01 Y95.07 E1.65026
G1 X89.69 Y94.05 E1.67269
G1 X89.78 Y93.96 E1.67505
G1 X90.34 Y92.60 E1.70203
G1 X92.50 Y90.44 E1.75778
G1 F2700 E-2.74222
G0 F4800 X101.60 Y101.03
;TYPE:WALL-INNER
G1 F2700 E1.75778
G1 F1200 X101.93 Y100.80 E1.76515
G1 X101.96 Y100.78 E1.76591
G1 X102.37 Y100.78 E1.77338
G1 X103.04 Y100.83 E1.78563
G1 X103.61 Y101.18 E1.79783
G1 X103.94 Y101.43 E1.80537
G1 X103.97 Y101.46 E1.80610
G1 X104.10 Y101.86 E1.81377
G1 X104.25 Y102.50 E1.82587
G1 X104.09 Y103.15 E1.83817
G1 X103.97 Y103.54 E1.84558
G1 X103.94 Y103.57 E1.84635
G1 X103.61 Y103.81 E1.85381
G1 X103.04 Y104.17 E1.86612
G1 X102.37 Y104.22 E1.87834
G1 X101.96 Y104.22 E1.88582
G1 X101.93 Y104.20 E1.88659
G1 X101.60 Y103.97 E1.89393
G1 X101.08 Y103.53 E1.90635
G1 X100.83 Y102.92 E1.91843
G1 X100.70 Y102.52 E1.92606
G1 X100.70 Y102.48 E1.92681
G1 X100.83 Y102.09 E1.93425
G1 X101.08 Y101.47 E1.94651
G1 X101.60 Y101.03 E1.95891
G0 F4800 X101.34 Y100.73
;TYPE:WALL-OUTER
G1 F1200 X101.74 Y100.43 E1.96797
G1 X101.90 Y100.38 E1.97097
G1 X102.39 Y100.38 E1.97995
G1 X103.17 Y100.44 E1.99419
G1 X103.83 Y100.85 E2.00841
G1 X104.23 Y101.14 E2.01744
G1 X104.33 Y101.28 E2.02055
G1 X104.48 Y101.74 E2.02952
G1 X104.66 Y102.50 E2.04374
G1 X104.48 Y103.25 E2.05795
G1 X104.33 Y103.72 E2.06694
G1 X104.23 Y103.86 E2.07003
G1 X103.83 Y104.15 E2.07905
G1 X103.17 Y104.56 E2.09329
G1 X102.39 Y104.62 E2.10751
G1 X101.90 Y104.62 E2.11651
G1 X101.74 Y104.57 E2.11952
G1 X101.34 Y104.28 E2.12855
G1 X100.75 Y103.77 E2.14280
G1 X100.45 Y103.04 E2.15727
G1 X100.30 Y102.58 E2.16602
G1 X100.30 Y102.42 E2.16911
G1 X100.45 Y101.96 E2.17780
G1 X100.75 Y101.23 E2.19232
G1 X101.34 Y100.73 E2.20652
G0 F4800 X101.54 Y101.26
;TYPE:FILL
G1 F1200 X103.79 Y103.51 E2.26466
G0 F4800 X103.46 Y103.74
G1 F1200 X101.24 Y101.52 E2.32206
G0 F4800 X101.24 Y101.52
G1 F1200 X101.06 Y101.90 E2.32980
G0 F4800 X101.06 Y101.90
G1 F1200 X103.11 Y103.96 E2.38292
G0 F4800 X102.64 Y104.06
G1 F1200 X100.90 Y102.31 E2.42794
G0 F4800 X100.90 Y102.31
G1 F1200 X101.01 Y103.00 E2.44058
G0 F4800 X101.01 Y103.00
G1 F1200 X102.09 Y104.07 E2.46849
G0 F4800 X103.96 Y103.11
G1 F1200 X101.86 Y101.01 E2.52273
G0 F4800 X102.34 Y100.92
G1 F1200 X104.07 Y102.65 E2.56748
G0 F4800 X104.07 Y102.65
G1 F1200 X103.96 Y103.11 E2.57607
G0 F4800 X103.99 Y102.00
G1 F1200 X102.95 Y100.97 E2.60294
G0 F4800 X103.04 Y99.10
;TYPE:SUPPORT
G1 F1200 X101.49 Y99.10 E2.63124
G1 X101.48 Y99.11 E2.63157
G1 X101.34 Y99.21 E2.63457
G1 X100.91 Y99.43 E2.64342
G1 X100.91 Y99.43 E2.64344
G1 X100.30 Y99.73 E2.65598
G1 X100.11 Y100.04 E2.66265
G1 X99.90 Y100.23 E2.66775
G1 X99.70 Y100.33 E2.67188
G1 X99.62 Y100.46 E2.67453
G1 X99.55 Y100.64 E2.67819
G1 X99.50 Y100.69 E2.67941
G1 X99.40 Y100.94 E2.68434
G1 X99.31 Y101.07 E2.68729
G1 X99.20 Y101.34 E2.69256
G1 X99.11 Y101.47 E2.69548
G1 X99.10 Y101.49 E2.69586
G1 X99.10 Y102.07 E2.70654
G1 X98.95 Y102.44 E2.71383
G1 X98.90 Y102.49 E2.71504
G1 X98.90 Y102.49 E2.71506
G1 X98.90 Y102.71 E2.71912
G1 X98.95 Y102.76 E2.72034
G1 X99.10 Y103.13 E2.72763
G1 X99.10 Y103.51 E2.73467
G1 X99.11 Y103.53 E2.73501
G1 X99.20 Y103.66 E2.73796
G1 X99.31 Y103.93 E2.74321
G1 X99.40 Y104.06 E2.74618
G1 X99.50 Y104.31 E2.75111
G1 X99.55 Y104.36 E2.75233
G1 X99.63 Y104.54 E2.75605
G1 X99.70 Y104.67 E2.75865
G1 X99.90 Y104.77 E2.76277
G1 X100.11 Y104.96 E2.76788
G1 X100.30 Y105.27 E2.77459
G1 X101.34 Y105.79 E2.79592
G1 X101.47 Y105.88 E2.79886
G1 X101.49 Y105.90 E2.79930
G1 X103.03 Y105.90 E2.82743
G1 X103.88 Y105.73 E2.84323
G1 X104.08 Y105.63 E2.84741
G1 X104.23 Y105.48 E2.85123
G1 X104.36 Y105.39 E2.85415
G1 X104.68 Y105.22 E2.86086
G1 X104.94 Y104.96 E2.86760
G1 X104.95 Y104.96 E2.86764
G1 X105.03 Y104.88 E2.86976
G1 X105.16 Y104.79 E2.87271
G1 X105.20 Y104.76 E2.87354
G1 X105.20 Y104.72 E2.87431
G1 X105.35 Y104.36 E2.88159
G1 X105.40 Y104.31 E2.88281
G1 X105.50 Y104.06 E2.88774
G1 X105.60 Y103.92 E2.89078
G1 X105.60 Y103.91 E2.89104
G1 X105.60 Y103.72 E2.89442
G1 X105.75 Y103.36 E2.90171
G1 X105.80 Y103.31 E2.90295
G1 X105.80 Y102.92 E2.90997
G1 X105.95 Y102.56 E2.91726
G1 X106.00 Y102.51 E2.91850
G1 X106.00 Y102.49 E2.91881
G1 X105.95 Y102.44 E2.92005
G1 X105.80 Y102.07 E2.92734
G1 X105.80 Y101.69 E2.93436
G1 X105.75 Y101.64 E2.93560
G1 X105.60 Y101.27 E2.94289
G1 X105.60 Y101.09 E2.94627
G1 X105.59 Y101.07 E2.94655
G1 X105.50 Y100.94 E2.94957
G1 X105.40 Y100.69 E2.95450
G1 X105.35 Y100.64 E2.95571
G1 X105.20 Y100.27 E2.96300
G1 X105.20 Y100.23 E2.96376
G1 X105.20 Y100.23 E2.96379
G1 X105.16 Y100.21 E2.96465
G1 X105.03 Y100.12 E2.96757
G1 X104.68 Y99.78 E2.97642
G1 X104.36 Y99.61 E2.98318
G1 X104.22 Y99.51 E2.98611
G1 X104.08 Y99.37 E2.98984
G1 X103.88 Y99.27 E2.99404
G1 X103.04 Y99.10 E3.00971
G0 F4800 X102.97 Y93.82
G1 F1200 X103.00 Y93.81 E3.01030
G1 X103.00 Y93.80 E3.01043
G1 X104.08 Y93.25 E3.03275
G1 X104.61 Y93.62 E3.04462
G1 X104.94 Y93.79 E3.05134
G1 X105.07 Y93.88 E3.05429
G1 X105.13 Y93.94 E3.05579
G1 X106.41 Y94.12 E3.07944
G1 X106.90 Y94.69 E3.09311
G1 X106.90 Y95.22 E3.10290
G1 X107.56 Y95.32 E3.11511
G1 X107.85 Y95.46 E3.12104
G1 X108.69 Y96.30 E3.14267
G1 X108.80 Y96.46 E3.14628
G1 X108.90 Y96.71 E3.15121
G1 X109.09 Y96.90 E3.15605
G1 X109.20 Y97.06 E3.15966
G1 X109.31 Y97.33 E3.16491
G1 X109.40 Y97.46 E3.16788
G1 X109.50 Y97.71 E3.17281
G1 X109.60 Y97.81 E3.17548
G1 X109.74 Y98.07 E3.18084
G1 X109.76 Y98.17 E3.18274
G1 X110.55 Y98.96 E3.20302
G1 X110.70 Y99.32 E3.21031
G1 X110.70 Y100.47 E3.23119
G1 X111.05 Y100.54 E3.23764
G1 X111.50 Y101.09 E3.25074
G1 X111.50 Y101.87 E3.26507
G1 X111.35 Y102.24 E3.27236
G1 X111.30 Y102.29 E3.27356
G1 X111.30 Y102.29 E3.27359
G1 X111.30 Y102.71 E3.28131
G1 X111.35 Y102.76 E3.28252
G1 X111.50 Y103.13 E3.28981
G1 X111.50 Y103.71 E3.30052
G1 X111.05 Y104.26 E3.31358
G1 X110.70 Y104.33 E3.32004
G1 X110.70 Y104.33 E3.32006
G1 X110.70 Y105.47 E3.34094
G1 X110.55 Y105.84 E3.34823
G1 X110.29 Y106.10 E3.35477
G1 X110.29 Y106.10 E3.35479
G1 X109.70 Y106.69 E3.37021
G1 X109.60 Y106.93 E3.37504
G1 X109.51 Y107.07 E3.37803
G1 X109.40 Y107.34 E3.38328
G1 X109.31 Y107.47 E3.38617
G1 X109.20 Y107.74 E3.39149
G1 X109.09 Y107.90 E3.39513
G1 X108.90 Y108.09 E3.39997
G1 X108.80 Y108.34 E3.40492
G1 X108.69 Y108.50 E3.40847
G1 X108.50 Y108.69 E3.41344
G1 X108.09 Y109.10 E3.42389
G1 X107.85 Y109.34 E3.43020
G1 X107.56 Y109.48 E3.43607
G1 X106.96 Y109.57 E3.44724
G1 X106.96 Y109.57 E3.44726
G1 X106.90 Y109.72 E3.45019
G1 X106.90 Y110.11 E3.45734
G1 X106.41 Y110.68 E3.47101
G1 X105.13 Y110.86 E3.49466
G1 X105.07 Y110.92 E3.49614
G1 X104.94 Y111.01 E3.49911
G1 X104.61 Y111.18 E3.50581
G1 X104.08 Y111.55 E3.51770
G1 X103.00 Y111.00 E3.54002
G1 X103.00 Y110.99 E3.54015
G1 X102.97 Y110.98 E3.54072
G1 X102.67 Y111.10 E3.54661
G1 X102.28 Y111.10 E3.55391
G1 X102.15 Y111.08 E3.55616
G1 X100.50 Y110.67 E3.58725
G1 X100.40 Y110.63 E3.58924
G1 X99.64 Y110.25 E3.60493
G1 X99.61 Y110.24 E3.60535
G1 X99.13 Y110.08 E3.61472
G1 X99.10 Y110.07 E3.61527
G1 X98.33 Y109.88 E3.62978
G1 X98.33 Y109.88 E3.62980
G1 X97.42 Y109.65 E3.64691
G1 X97.00 Y109.11 E3.65949
G1 X97.00 Y108.99 E3.66169
G1 X97.00 Y108.99 E3.66171
G1 X96.83 Y109.15 E3.66597
G1 X95.60 Y108.64 E3.69041
G1 X95.60 Y108.09 E3.70050
G1 X95.55 Y108.04 E3.70175
G1 X95.40 Y107.67 E3.70903
G1 X95.40 Y107.49 E3.71240
G1 X95.29 Y107.38 E3.71537
G1 X94.96 Y107.21 E3.72213
G1 X94.82 Y107.11 E3.72506
G1 X94.42 Y106.71 E3.73544
G1 X94.42 Y105.89 E3.75057
G1 X94.81 Y105.50 E3.76057
G1 X94.81 Y105.50 E3.76058
G1 X94.68 Y105.38 E3.76379
G1 X94.68 Y105.38 E3.76381
G1 X94.30 Y105.18 E3.77171
G1 X94.00 Y104.70 E3.78208
G1 X94.00 Y103.49 E3.80420
G1 X93.95 Y103.44 E3.80544
G1 X93.80 Y103.07 E3.81272
G1 X93.80 Y101.72 E3.83744
G1 X93.95 Y101.36 E3.84472
G1 X94.00 Y101.31 E3.84596
G1 X94.00 Y100.10 E3.86802
G1 X94.30 Y99.62 E3.87840
G1 X94.69 Y99.42 E3.88636
G1 X94.81 Y99.30 E3.88954
G1 X94.81 Y99.30 E3.88956
G1 X94.43 Y98.92 E3.89947
G1 X94.42 Y98.09 E3.91452
G1 X94.82 Y97.69 E3.92492
G1 X94.95 Y97.59 E3.92796
G1 X95.29 Y97.42 E3.93474
G1 X95.40 Y97.31 E3.93771
G1 X95.40 Y97.13 E3.94097
G1 X95.52 Y96.79 E3.94752
G1 X95.60 Y96.71 E3.94965
G1 X95.60 Y96.15 E3.95975
G1 X96.83 Y95.64 E3.98418
G1 X97.00 Y95.81 E3.98847
G1 X97.00 Y95.69 E3.99070
G1 X97.42 Y95.15 E4.00328
G1 X98.80 Y94.80 E4.02929
G1 X98.80 Y94.80 E4.02933
G1 X99.11 Y94.72 E4.03519
G1 X99.62 Y94.56 E4.04493
G1 X100.40 Y94.16 E4.06097
G1 X100.51 Y94.13 E4.06295
G1 X101.80 Y93.80 E4.08740
G1 X101.80 Y93.80 E4.08742
G1 X102.15 Y93.71 E4.09397
G1 X102.27 Y93.70 E4.09622
G1 X102.67 Y93.70 E4.10357
G1 X102.97 Y93.82 E4.10943
G0 F4800 X100.76 Y94.00
G1 F1200 X105.98 Y94.00 E4.20505
G0 F4800 X105.98 Y94.00
G1 F1200 X109.77 Y98.00 E4.30584
G0 F4800 X109.77 Y98.00
G1 F1200 X94.43 Y98.00 E4.58659
G0 F4800 X93.74 Y102.00
G1 F1200 X99.16 Y102.00 E4.68574
G0 F4800 X99.16 Y102.00
G1 F1200 X110.47 Y106.00 E4.90521
G0 F4800 X110.47 Y106.00
G1 F1200 X94.36 Y106.00 E5.19990
G0 F4800 X94.36 Y106.00
G1 F1200 X98.57 Y110.00 E5.30615
G0 F4800 X98.57 Y110.00
G1 F1200 X106.96 Y110.00 E5.45958
G0 F4800 X105.74 Y102.00
G1 F1200 X111.51 Y102.00 E5.56513
;LAYER:1
M106 S127
G0 F12000 X105.09 Y102.50 Z0.40
G0 X104.99 Y102.50
;TYPE:WALL-INNER
G1 F1620 X104.90 Y103.08 E5.56870
G1 X104.75 Y103.54 E5.57168
G1 X104.19 Y104.32 E5.57756
G1 X103.79 Y104.61 E5.58055
G1 X103.27 Y104.87 E5.58410
G1 X102.70 Y104.97 E5.58763
G1 X102.21 Y104.97 E5.59062
G1 X101.29 Y104.67 E5.59652
G1 X100.89 Y104.38 E5.59950
G1 X100.49 Y103.96 E5.60305
G1 X100.21 Y103.45 E5.60661
G1 X100.06 Y102.98 E5.60958
G1 X100.06 Y102.02 E5.61547
G1 X100.21 Y101.56 E5.61843
G1 X100.49 Y101.04 E5.62201
G1 X100.89 Y100.62 E5.62556
G1 X101.29 Y100.33 E5.62853
G1 X102.21 Y100.03 E5.63443
G1 X102.70 Y100.03 E5.63742
G1 X103.27 Y100.13 E5.64095
G1 X103.79 Y100.39 E5.64454
G1 X104.19 Y100.68 E5.64749
G1 X104.76 Y101.46 E5.65340
G1 X104.91 Y101.92 E5.65635
G1 X104.99 Y102.50 E5.65991
G0 F12000 X105.39 Y102.50
;TYPE:WALL-OUTER
G1 F1620 X105.30 Y103.17 E5.66405
G1 X105.12 Y103.72 E5.66759
G1 X104.47 Y104.61 E5.67427
G1 X103.99 Y104.96 E5.67788
G1 X103.39 Y105.25 E5.68195
G1 X102.73 Y105.37 E5.68607
G1 X102.14 Y105.37 E5.68965
G1 X101.10 Y105.03 E5.69631
G1 X100.63 Y104.68 E5.69989
G1 X100.16 Y104.20 E5.70399
G1 X99.85 Y103.60 E5.70812
G1 X99.66 Y103.05 E5.71168
G1 X99.66 Y101.95 E5.71836
G1 X99.84 Y101.40 E5.72191
G1 X100.16 Y100.80 E5.72605
G1 X100.63 Y100.32 E5.73012
G1 X101.11 Y99.97 E5.73374
G1 X102.14 Y99.63 E5.74039
G1 X102.73 Y99.63 E5.74397
G1 X103.39 Y99.75 E5.74807
G1 X104.00 Y100.05 E5.75220
G1 X104.47 Y100.39 E5.75577
G1 X105.12 Y101.28 E5.76244
G1 X105.30 Y101.83 E5.76600
G1 X105.39 Y102.50 E5.77013
G0 F12000 X104.84 Y102.48
;TYPE:FILL
G1 F1620 X102.50 Y104.82 E5.79035
G0 F12000 X102.50 Y104.82
G1 F1620 X102.00 Y104.75 E5.79339
G0 F12000 X102.00 Y104.75
G1 F1620 X104.77 Y101.99 E5.81725
G0 F12000 X104.64 Y101.55
G1 F1620 X101.58 Y104.61 E5.84364
G0 F12000 X101.58 Y104.61
G1 F1620 X101.20 Y104.43 E5.84623
G0 F12000 X101.20 Y104.43
G1 F1620 X104.41 Y101.22 E5.87391
G0 F12000 X104.17 Y100.89
G1 F1620 X100.89 Y104.17 E5.90223
G0 F12000 X100.61 Y103.89
G1 F1620 X103.87 Y100.62 E5.93040
G0 F12000 X103.87 Y100.62
G1 F1620 X103.52 Y100.41 E5.93291
G0 F12000 X103.52 Y100.41
G1 F1620 X100.41 Y103.52 E5.95971
G0 F12000 X100.25 Y103.11
G1 F1620 X103.12 Y100.25 E5.98442
G0 F12000 X103.12 Y100.25
G1 F1620 X102.63 Y100.17 E5.98745
G0 F12000 X102.63 Y100.17
G1 F1620 X100.20 Y102.59 E6.00834
G0 F12000 X100.21 Y102.03
G1 F1620 X101.98 Y100.25 E6.02361
G0 F12000 X104.73 Y103.16
G1 F1620 X103.14 Y104.75 E6.03731
G0 F12000 X103.82 Y106.15
;TYPE:SUPPORT
G1 F1620 X103.84 Y106.15 E6.03744
G1 X105.29 Y105.42 E6.04728
G1 X105.60 Y105.11 E6.05000
G1 X105.70 Y104.86 E6.05166
G1 X105.79 Y104.73 E6.05262
G1 X105.90 Y104.46 E6.05439
G1 X106.00 Y104.32 E6.05540
G1 X106.00 Y104.31 E6.05548
G1 X106.00 Y104.12 E6.05661
G1 X106.15 Y103.75 E6.05904
G1 X106.20 Y103.71 E6.05945
G1 X106.20 Y103.32 E6.06180
G1 X106.35 Y102.96 E6.06422
G1 X106.40 Y102.91 E6.06464
G1 X106.40 Y102.29 E6.06840
G1 X106.35 Y102.24 E6.06881
G1 X106.20 Y101.87 E6.07124
G1 X106.20 Y101.29 E6.07480
G1 X106.15 Y101.24 E6.07522
G1 X106.00 Y100.87 E6.07765
G1 X106.00 Y100.69 E6.07877
G1 X105.99 Y100.68 E6.07887
G1 X105.90 Y100.54 E6.07987
G1 X105.79 Y100.27 E6.08163
G1 X105.70 Y100.14 E6.08261
G1 X105.60 Y99.89 E6.08425
G1 X105.29 Y99.57 E6.08696
G1 X103.84 Y98.85 E6.09680
G1 X103.82 Y98.84 E6.09695
G1 X103.37 Y98.69 E6.09983
G1 X103.24 Y98.70 E6.10064
G1 X103.22 Y98.70 E6.10073
G1 X101.86 Y98.70 E6.10903
G1 X101.14 Y98.84 E6.11350
G1 X101.06 Y98.93 E6.11421
G1 X100.86 Y99.05 E6.11563
G1 X100.70 Y99.10 E6.11668
G1 X100.68 Y99.14 E6.11692
G1 X100.56 Y99.25 E6.11791
G1 X100.35 Y99.40 E6.11950
G1 X100.05 Y99.50 E6.12142
G1 X99.89 Y99.50 E6.12241
G1 X99.69 Y99.69 E6.12408
G1 X99.69 Y99.69 E6.12409
G1 X99.47 Y99.92 E6.12603
G1 X99.34 Y100.01 E6.12700
G1 X99.25 Y100.06 E6.12759
G1 X99.25 Y100.06 E6.12761
G1 X99.23 Y100.10 E6.12791
G1 X99.12 Y100.27 E6.12911
G1 X99.10 Y100.29 E6.12929
G1 X99.00 Y100.54 E6.13093
G1 X98.91 Y100.67 E6.13192
G1 X98.80 Y100.94 E6.13367
G1 X98.71 Y101.07 E6.13465
G1 X98.70 Y101.09 E6.13477
G1 X98.70 Y101.47 E6.13712
G1 X98.55 Y101.84 E6.13955
G1 X98.50 Y101.89 E6.13995
G1 X98.50 Y101.89 E6.13996
G1 X98.50 Y103.31 E6.14863
G1 X98.55 Y103.36 E6.14903
G1 X98.70 Y103.72 E6.15146
G1 X98.70 Y103.91 E6.15259
