;Generated with Cura_SteamEngine 13.11
M109 S210     ;Heatup to 210C
G21           ;metric values
G90           ;absolute positioning
G28           ;Home
G1 Z15.0 F300 ;move the platform down 15mm
G92 E0        ;zero the extruded length
G1 F200 E5    ;extrude 5mm of feed stock
G92 E0        ;zero the extruded length again

;total_layers=399
;LAYER:0
M107
G0 F4800 X76.38 Y80.01 Z0.30
;TYPE:SKIRT
G1 F2700 E0.00000
G1 F1200 X80.01 Y76.38 E0.09394
G1 X124.99 Y76.38 E0.91689
G1 X128.63 Y80.01 E1.01084
G1 X128.63 Y124.99 E1.83379
G1 X124.99 Y128.63 E1.92775
G1 X80.01 Y128.63 E2.75070
G1 X76.38 Y124.99 E2.84465
G1 X76.38 Y80.01 E3.66760
G0 F4800 X83.08 Y82.99
G0 X83.18 Y83.18
;TYPE:WALL-INNER
G1 F1200 X121.82 Y83.18 E4.37462
G1 X121.82 Y121.82 E5.08164
G1 X83.18 Y121.82 E5.78867
G1 X83.18 Y83.18 E6.49569
G0 F4800 X82.78 Y82.78
;TYPE:WALL-OUTER
G1 F1200 X122.22 Y82.78 E7.21735
G1 X122.22 Y122.22 E7.93901
G1 X82.78 Y122.22 E8.66067
G1 X82.78 Y82.78 E9.38233
G0 F4800 X83.32 Y83.60
;TYPE:FILL
G1 F1200 X83.32 Y84.16 E9.39266
G0 F4800 X83.32 Y84.16
G1 F1200 X120.84 Y121.68 E10.36334
G0 F4800 X121.40 Y121.68
G1 F1200 X83.32 Y83.60 E11.34863
G0 F4800 X83.60 Y83.32
G1 F1200 X121.68 Y121.40 E12.33392
G0 F4800 X121.68 Y120.84
G1 F1200 X84.16 Y83.32 E13.30459
G0 F4800 X84.73 Y83.32
G1 F1200 X121.68 Y120.27 E14.26062
G0 F4800 X121.68 Y120.27
G1 F1200 X121.68 Y120.84 E14.27098
G0 F4800 X121.68 Y119.70
G1 F1200 X85.30 Y83.32 E15.21237
G0 F4800 X85.86 Y83.32
G1 F1200 X121.68 Y119.14 E16.13914
G0 F4800 X121.68 Y119.14
G1 F1200 X121.68 Y119.70 E16.14947
G0 F4800 X121.68 Y118.57
G1 F1200 X86.43 Y83.32 E17.06160
G0 F4800 X86.99 Y83.32
G1 F1200 X121.68 Y118.01 E17.95909
G0 F4800 X121.68 Y118.01
G1 F1200 X121.68 Y118.57 E17.96944
G0 F4800 X121.68 Y117.44
G1 F1200 X87.56 Y83.32 E18.85230
G0 F4800 X88.12 Y83.32
G1 F1200 X121.68 Y116.88 E19.72052
G0 F4800 X121.68 Y116.88
G1 F1200 X121.68 Y117.44 E19.73086
G0 F4800 X121.68 Y116.31
G1 F1200 X88.69 Y83.32 E20.58444
G0 F4800 X89.25 Y83.32
G1 F1200 X121.68 Y115.74 E21.42339
G0 F4800 X121.68 Y115.74
G1 F1200 X121.68 Y116.31 E21.43375
G0 F4800 X121.68 Y115.18
G1 F1200 X89.82 Y83.32 E22.25807
G0 F4800 X90.39 Y83.32
G1 F1200 X121.68 Y114.61 E23.06775
G0 F4800 X121.68 Y114.61
G1 F1200 X121.68 Y115.18 E23.07811
G0 F4800 X121.68 Y114.05
G1 F1200 X90.95 Y83.32 E23.87314
G0 F4800 X91.52 Y83.32
G1 F1200 X121.68 Y113.48 E24.65356
G0 F4800 X121.68 Y113.48
G1 F1200 X121.68 Y114.05 E24.66390
G0 F4800 X121.68 Y112.92
G1 F1200 X92.08 Y83.32 E25.42968
G0 F4800 X92.65 Y83.32
G1 F1200 X121.68 Y112.35 E26.18081
G0 F4800 X121.68 Y112.35
G1 F1200 X121.68 Y112.92 E26.19116
G0 F4800 X121.68 Y111.79
G1 F1200 X93.21 Y83.32 E26.92768
G0 F4800 X93.78 Y83.32
G1 F1200 X121.68 Y111.22 E27.64956
G0 F4800 X121.68 Y111.22
G1 F1200 X121.68 Y111.79 E27.65991
G0 F4800 X121.68 Y110.65
G1 F1200 X94.35 Y83.32 E28.36714
G0 F4800 X94.91 Y83.32
G1 F1200 X121.68 Y110.09 E29.05976
G0 F4800 X121.68 Y110.09
G1 F1200 X121.68 Y110.65 E29.07009
G0 F4800 X121.68 Y109.52
G1 F1200 X95.48 Y83.32 E29.74806
G0 F4800 X96.04 Y83.32
G1 F1200 X121.68 Y108.96 E30.41139
G0 F4800 X121.68 Y108.96
G1 F1200 X121.68 Y109.52 E30.42175
G0 F4800 X121.68 Y108.39
G1 F1200 X96.61 Y83.32 E31.07044
G0 F4800 X97.18 Y83.32
G1 F1200 X121.68 Y107.82 E31.70451
G0 F4800 X121.68 Y107.82
G1 F1200 X121.68 Y108.39 E31.71485
G0 F4800 X121.68 Y107.26
G1 F1200 X97.74 Y83.32 E32.33427
G0 F4800 X98.31 Y83.32
G1 F1200 X121.68 Y106.69 E32.93907
G0 F4800 X121.68 Y106.69
G1 F1200 X121.68 Y107.26 E32.94942
G0 F4800 X121.68 Y106.13
G1 F1200 X98.87 Y83.32 E33.53959
G0 F4800 X99.44 Y83.32
G1 F1200 X121.68 Y105.56 E34.11511
G0 F4800 X121.68 Y105.56
G1 F1200 X121.68 Y106.13 E34.12547
G0 F4800 X121.68 Y105.00
G1 F1200 X100.00 Y83.32 E34.68636
G0 F4800 X100.57 Y83.32
G1 F1200 X121.68 Y104.43 E35.23262
G0 F4800 X121.68 Y104.43
G1 F1200 X121.68 Y105.00 E35.24296
G0 F4800 X121.68 Y103.86
G1 F1200 X101.14 Y83.32 E35.77458
G0 F4800 X101.70 Y83.32
G1 F1200 X121.68 Y103.30 E36.29156
G0 F4800 X121.68 Y103.30
G1 F1200 X121.68 Y103.86 E36.30191
G0 F4800 X121.68 Y102.73
G1 F1200 X102.27 Y83.32 E36.80427
G0 F4800 X102.83 Y83.32
G1 F1200 X121.68 Y102.17 E37.29199
G0 F4800 X121.68 Y102.17
G1 F1200 X121.68 Y102.73 E37.30234
G0 F4800 X121.68 Y101.60
G1 F1200 X103.40 Y83.32 E37.77542
G0 F4800 X103.96 Y83.32
G1 F1200 X121.68 Y101.04 E38.23387
G0 F4800 X121.68 Y101.04
G1 F1200 X121.68 Y101.60 E38.24421
G0 F4800 X121.68 Y100.47
G1 F1200 X104.53 Y83.32 E38.68802
G0 F4800 X105.10 Y83.32
G1 F1200 X121.68 Y99.90 E39.11719
G0 F4800 X121.68 Y99.90
G1 F1200 X121.68 Y100.47 E39.12755
G0 F4800 X121.68 Y99.34
G1 F1200 X105.66 Y83.32 E39.54210
G0 F4800 X106.23 Y83.32
G1 F1200 X121.68 Y98.77 E39.94201
G0 F4800 X121.68 Y98.77
G1 F1200 X121.68 Y99.34 E39.95237
G0 F4800 X121.68 Y98.21
G1 F1200 X106.79 Y83.32 E40.33764
G0 F4800 X107.36 Y83.32
G1 F1200 X121.68 Y97.64 E40.70828
G0 F4800 X121.68 Y97.64
G1 F1200 X121.68 Y98.21 E40.71863
G0 F4800 X121.68 Y97.08
G1 F1200 X107.92 Y83.32 E41.07464
G0 F4800 X108.49 Y83.32
G1 F1200 X121.68 Y96.51 E41.41601
G0 F4800 X121.68 Y96.51
G1 F1200 X121.68 Y97.08 E41.42636
G0 F4800 X121.68 Y95.94
G1 F1200 X109.05 Y83.32 E41.75310
G0 F4800 X109.62 Y83.32
G1 F1200 X121.68 Y95.38 E42.06520
G0 F4800 X121.68 Y95.38
G1 F1200 X121.68 Y95.94 E42.07554
G0 F4800 X121.68 Y94.81
G1 F1200 X110.19 Y83.32 E42.37300
G0 F4800 X110.75 Y83.32
G1 F1200 X121.68 Y94.25 E42.65582
G0 F4800 X121.68 Y94.25
G1 F1200 X121.68 Y94.81 E42.66617
G0 F4800 X121.68 Y93.68
G1 F1200 X111.32 Y83.32 E42.93438
G0 F4800 X111.88 Y83.32
G1 F1200 X121.68 Y93.12 E43.18794
G0 F4800 X121.68 Y93.12
G1 F1200 X121.68 Y93.68 E43.19829
G0 F4800 X121.68 Y92.55
G1 F1200 X112.45 Y83.32 E43.43721
G0 F4800 X113.01 Y83.32
G1 F1200 X121.68 Y91.99 E43.66151
G0 F4800 X121.68 Y91.99
G1 F1200 X121.68 Y92.55 E43.67184
G0 F4800 X121.68 Y91.42
G1 F1200 X113.58 Y83.32 E43.88150
G0 F4800 X114.15 Y83.32
G1 F1200 X121.68 Y90.85 E44.07652
G0 F4800 X121.68 Y90.85
G1 F1200 X121.68 Y91.42 E44.08687
G0 F4800 X121.68 Y90.29
G1 F1200 X114.71 Y83.32 E44.26727
G0 F4800 X115.28 Y83.32
G1 F1200 X121.68 Y89.72 E44.43302
G0 F4800 X121.68 Y89.72
G1 F1200 X121.68 Y90.29 E44.44338
G0 F4800 X121.68 Y89.16
G1 F1200 X115.84 Y83.32 E44.59449
G0 F4800 X116.41 Y83.32
G1 F1200 X121.68 Y88.59 E44.73097
G0 F4800 X121.68 Y88.59
G1 F1200 X121.68 Y89.16 E44.74132
G0 F4800 X121.68 Y88.03
G1 F1200 X116.97 Y83.32 E44.86318
G0 F4800 X117.54 Y83.32
G1 F1200 X121.68 Y87.46 E44.97038
G0 F4800 X121.68 Y87.46
G1 F1200 X121.68 Y88.03 E44.98074
G0 F4800 X121.68 Y86.89
G1 F1200 X118.11 Y83.32 E45.07332
G0 F4800 X118.67 Y83.32
G1 F1200 X121.68 Y86.33 E45.15127
G0 F4800 X121.68 Y86.33
G1 F1200 X121.68 Y86.89 E45.16160
G0 F4800 X121.68 Y85.76
G1 F1200 X119.24 Y83.32 E45.22491
G0 F4800 X119.80 Y83.32
G1 F1200 X121.68 Y85.20 E45.27358
G0 F4800 X121.68 Y85.20
G1 F1200 X121.68 Y85.76 E45.28394
G0 F4800 X121.68 Y84.63
G1 F1200 X120.37 Y83.32 E45.31798
G0 F4800 X120.93 Y83.32
G1 F1200 X121.68 Y84.07 E45.33739
G0 F4800 X121.68 Y84.07
G1 F1200 X121.68 Y84.63 E45.34774
G0 F4800 X121.68 Y83.50
G1 F1200 X121.50 Y83.32 E45.35250
G0 F4800 X83.32 Y84.73
G1 F1200 X83.32 Y85.30 E45.36286
G0 F4800 X83.32 Y85.30
G1 F1200 X119.70 Y121.68 E46.30424
G0 F4800 X119.14 Y121.68
G1 F1200 X83.32 Y85.86 E47.23102
G0 F4800 X83.32 Y85.86
G1 F1200 X83.32 Y86.43 E47.24137
G0 F4800 X83.32 Y86.43
G1 F1200 X118.57 Y121.68 E48.15350
G0 F4800 X118.01 Y121.68
G1 F1200 X83.32 Y86.99 E49.05098
G0 F4800 X83.32 Y86.99
G1 F1200 X83.32 Y87.56 E49.06132
G0 F4800 X83.32 Y87.56
G1 F1200 X117.44 Y121.68 E49.94418
G0 F4800 X116.88 Y121.68
G1 F1200 X83.32 Y88.12 E50.81240
G0 F4800 X83.32 Y88.12
G1 F1200 X83.32 Y88.69 E50.82276
G0 F4800 X83.32 Y88.69
G1 F1200 X116.31 Y121.68 E51.67634
G0 F4800 X115.74 Y121.68
G1 F1200 X83.32 Y89.25 E52.51529
G0 F4800 X83.32 Y89.25
G1 F1200 X83.32 Y89.82 E52.52564
G0 F4800 X83.32 Y89.82
G1 F1200 X115.18 Y121.68 E53.34997
G0 F4800 X114.61 Y121.68
G1 F1200 X83.32 Y90.39 E54.15965
G0 F4800 X83.32 Y90.39
G1 F1200 X83.32 Y90.95 E54.17000
G0 F4800 X83.32 Y90.95
G1 F1200 X114.05 Y121.68 E54.96504
G0 F4800 X113.48 Y121.68
G1 F1200 X83.32 Y91.52 E55.74546
G0 F4800 X83.32 Y91.52
G1 F1200 X83.32 Y92.08 E55.75581
G0 F4800 X83.32 Y92.08
G1 F1200 X112.92 Y121.68 E56.52159
G0 F4800 X112.35 Y121.68
G1 F1200 X83.32 Y92.65 E57.27272
G0 F4800 X83.32 Y92.65
G1 F1200 X83.32 Y93.21 E57.28306
G0 F4800 X83.32 Y93.21
G1 F1200 X111.79 Y121.68 E58.01958
G0 F4800 X111.22 Y121.68
G1 F1200 X83.32 Y93.78 E58.74145
G0 F4800 X83.32 Y93.78
G1 F1200 X83.32 Y94.35 E58.75181
G0 F4800 X83.32 Y94.35
G1 F1200 X110.65 Y121.68 E59.45904
G0 F4800 X110.09 Y121.68
G1 F1200 X83.32 Y94.91 E60.15165
G0 F4800 X83.32 Y94.91
G1 F1200 X83.32 Y95.48 E60.16201
G0 F4800 X83.32 Y95.48
G1 F1200 X109.52 Y121.68 E60.83998
G0 F4800 X108.96 Y121.68
G1 F1200 X83.32 Y96.04 E61.50331
G0 F4800 X83.32 Y96.04
G1 F1200 X83.32 Y96.61 E61.51364
G0 F4800 X83.32 Y96.61
G1 F1200 X108.39 Y121.68 E62.16234
G0 F4800 X107.82 Y121.68
G1 F1200 X83.32 Y97.18 E62.79641
G0 F4800 X83.32 Y97.18
G1 F1200 X83.32 Y97.74 E62.80676
G0 F4800 X83.32 Y97.74
G1 F1200 X107.26 Y121.68 E63.42619
G0 F4800 X106.69 Y121.68
G1 F1200 X83.32 Y98.31 E64.03098
G0 F4800 X83.32 Y98.31
G1 F1200 X83.32 Y98.87 E64.04134
G0 F4800 X83.32 Y98.87
G1 F1200 X106.13 Y121.68 E64.63150
G0 F4800 X105.56 Y121.68
G1 F1200 X83.32 Y99.44 E65.20703
G0 F4800 X83.32 Y99.44
G1 F1200 X83.32 Y100.00 E65.21736
G0 F4800 X83.32 Y100.00
G1 F1200 X105.00 Y121.68 E65.77826
G0 F4800 X104.43 Y121.68
G1 F1200 X83.32 Y100.57 E66.32452
G0 F4800 X83.32 Y100.57
G1 F1200 X83.32 Y101.14 E66.33487
G0 F4800 X83.32 Y101.14
G1 F1200 X103.86 Y121.68 E66.86649
G0 F4800 X103.30 Y121.68
G1 F1200 X83.32 Y101.70 E67.38347
G0 F4800 X83.32 Y101.70
G1 F1200 X83.32 Y102.27 E67.39381
G0 F4800 X83.32 Y102.27
G1 F1200 X102.73 Y121.68 E67.89617
G0 F4800 X102.17 Y121.68
G1 F1200 X83.32 Y102.83 E68.38388
G0 F4800 X83.32 Y102.83
G1 F1200 X83.32 Y103.40 E68.39424
G0 F4800 X83.32 Y103.40
G1 F1200 X101.60 Y121.68 E68.86731
G0 F4800 X101.04 Y121.68
G1 F1200 X83.32 Y103.96 E69.32577
G0 F4800 X83.32 Y103.96
G1 F1200 X83.32 Y104.53 E69.33612
G0 F4800 X83.32 Y104.53
G1 F1200 X100.47 Y121.68 E69.77994
G0 F4800 X99.90 Y121.68
G1 F1200 X83.32 Y105.10 E70.20911
G0 F4800 X83.32 Y105.10
G1 F1200 X83.32 Y105.66 E70.21945
G0 F4800 X83.32 Y105.66
G1 F1200 X99.34 Y121.68 E70.63400
G0 F4800 X98.77 Y121.68
G1 F1200 X83.32 Y106.23 E71.03391
G0 F4800 X83.32 Y106.23
G1 F1200 X83.32 Y106.79 E71.04427
G0 F4800 X83.32 Y106.79
G1 F1200 X98.21 Y121.68 E71.42953
G0 F4800 X97.64 Y121.68
G1 F1200 X83.32 Y107.36 E71.80017
G0 F4800 X83.32 Y107.36
G1 F1200 X83.32 Y107.92 E71.81053
G0 F4800 X83.32 Y107.92
G1 F1200 X97.08 Y121.68 E72.16654
G0 F4800 X96.51 Y121.68
G1 F1200 X83.32 Y108.49 E72.50790
G0 F4800 X83.32 Y108.49
G1 F1200 X83.32 Y109.05 E72.51824
G0 F4800 X83.32 Y109.05
G1 F1200 X95.94 Y121.68 E72.84497
G0 F4800 X95.38 Y121.68
G1 F1200 X83.32 Y109.62 E73.15708
G0 F4800 X83.32 Y109.62
G1 F1200 X83.32 Y110.19 E73.16743
G0 F4800 X83.32 Y110.19
G1 F1200 X94.81 Y121.68 E73.46490
G0 F4800 X94.25 Y121.68
G1 F1200 X83.32 Y110.75 E73.74772
G0 F4800 X83.32 Y110.75
G1 F1200 X83.32 Y111.32 E73.75805
G0 F4800 X83.32 Y111.32
G1 F1200 X93.68 Y121.68 E74.02626
G0 F4800 X93.12 Y121.68
G1 F1200 X83.32 Y111.88 E74.27982
G0 F4800 X83.32 Y111.88
G1 F1200 X83.32 Y112.45 E74.29017
G0 F4800 X83.32 Y112.45
G1 F1200 X92.55 Y121.68 E74.52909
G0 F4800 X91.99 Y121.68
G1 F1200 X83.32 Y113.01 E74.75339
G0 F4800 X83.32 Y113.01
G1 F1200 X83.32 Y113.58 E74.76374
G0 F4800 X83.32 Y113.58
G1 F1200 X91.42 Y121.68 E74.97340
G0 F4800 X90.85 Y121.68
G1 F1200 X83.32 Y114.15 E75.16841
G0 F4800 X83.32 Y114.15
G1 F1200 X83.32 Y114.71 E75.17875
G0 F4800 X83.32 Y114.71
G1 F1200 X90.29 Y121.68 E75.35915
G0 F4800 X89.72 Y121.68
G1 F1200 X83.32 Y115.28 E75.52490
G0 F4800 X83.32 Y115.28
G1 F1200 X83.32 Y115.84 E75.53525
G0 F4800 X83.32 Y115.84
G1 F1200 X89.16 Y121.68 E75.68637
G0 F4800 X88.59 Y121.68
G1 F1200 X83.32 Y116.41 E75.82285
G0 F4800 X83.32 Y116.41
G1 F1200 X83.32 Y116.97 E75.83320
G0 F4800 X83.32 Y116.97
G1 F1200 X88.03 Y121.68 E75.95505
G0 F4800 X87.46 Y121.68
G1 F1200 X83.32 Y117.54 E76.06226
G0 F4800 X83.32 Y117.54
G1 F1200 X83.32 Y118.11 E76.07260
G0 F4800 X83.32 Y118.11
G1 F1200 X86.89 Y121.68 E76.16518
G0 F4800 X86.33 Y121.68
G1 F1200 X83.32 Y118.67 E76.24313
G0 F4800 X83.32 Y118.67
G1 F1200 X83.32 Y119.24 E76.25348
G0 F4800 X83.32 Y119.24
G1 F1200 X85.76 Y121.68 E76.31679
G0 F4800 X85.20 Y121.68
G1 F1200 X83.32 Y119.80 E76.36546
G0 F4800 X83.32 Y119.80
G1 F1200 X83.32 Y120.37 E76.37582
G0 F4800 X83.32 Y120.37
G1 F1200 X84.63 Y121.68 E76.40986
G0 F4800 X84.07 Y121.68
G1 F1200 X83.32 Y120.93 E76.42927
G0 F4800 X83.32 Y120.93
G1 F1200 X83.32 Y121.50 E76.43962
G1 X83.50 Y121.68 E76.44438
G0 F4800 X120.27 Y121.68
G1 F1200 X83.32 Y84.73 E77.40041
;LAYER:1
M106 S127
G0 F12000 X83.23 Y83.23 Z0.40
;TYPE:WALL-INNER
G1 F1620 X121.78 Y83.23 E77.63548
G1 X121.78 Y121.78 E77.87054
G1 X83.23 Y121.78 E78.10561
G1 X83.23 Y83.23 E78.34067
G0 F12000 X82.83 Y82.83
;TYPE:WALL-OUTER
G1 F1620 X122.18 Y82.83 E78.58061
G1 X122.18 Y122.18 E78.82056
G1 X82.83 Y122.18 E79.06050
G1 X82.83 Y82.83 E79.30044
G0 F12000 X83.79 Y83.37
;TYPE:FILL
G1 F1620 X84.36 Y83.37 E79.30389
G0 F12000 X84.36 Y83.37
G1 F1620 X83.37 Y84.36 E79.31246
G0 F12000 X83.37 Y84.92
G1 F1620 X84.92 Y83.37 E79.32589
G0 F12000 X84.92 Y83.37
G1 F1620 X85.49 Y83.37 E79.32934
G0 F12000 X85.49 Y83.37
G1 F1620 X83.37 Y85.49 E79.34766
G0 F12000 X83.37 Y86.06
G1 F1620 X86.06 Y83.37 E79.37086
G0 F12000 X86.06 Y83.37
G1 F1620 X86.62 Y83.37 E79.37430
G0 F12000 X86.62 Y83.37
G1 F1620 X83.37 Y86.62 E79.40237
G0 F12000 X83.37 Y87.19
G1 F1620 X87.19 Y83.37 E79.43532
G0 F12000 X87.19 Y83.37
G1 F1620 X87.75 Y83.37 E79.43878
G0 F12000 X87.75 Y83.37
G1 F1620 X83.37 Y87.75 E79.47661
G0 F12000 X83.37 Y88.32
G1 F1620 X88.32 Y83.37 E79.51932
G0 F12000 X88.32 Y83.37
G1 F1620 X88.88 Y83.37 E79.52277
G0 F12000 X88.88 Y83.37
G1 F1620 X83.37 Y88.88 E79.57035
G0 F12000 X83.37 Y89.45
G1 F1620 X89.45 Y83.37 E79.62282
G0 F12000 X89.45 Y83.37
G1 F1620 X90.02 Y83.37 E79.62627
G0 F12000 X90.02 Y83.37
G1 F1620 X83.37 Y90.02 E79.68361
G0 F12000 X83.37 Y90.58
G1 F1620 X90.58 Y83.37 E79.74583
G0 F12000 X90.58 Y83.37
G1 F1620 X91.15 Y83.37 E79.74929
G0 F12000 X91.15 Y83.37
G1 F1620 X83.37 Y91.15 E79.81639
G0 F12000 X83.37 Y91.71
G1 F1620 X91.71 Y83.37 E79.88837
G0 F12000 X91.71 Y83.37
G1 F1620 X92.28 Y83.37 E79.89181
G0 F12000 X92.28 Y83.37
G1 F1620 X83.37 Y92.28 E79.96867
G0 F12000 X83.37 Y92.84
G1 F1620 X92.84 Y83.37 E80.05040
G0 F12000 X92.84 Y83.37
G1 F1620 X93.41 Y83.37 E80.05385
G0 F12000 X93.41 Y83.37
G1 F1620 X83.37 Y93.41 E80.14047
G0 F12000 X83.37 Y93.97
G1 F1620 X93.97 Y83.37 E80.23196
G0 F12000 X93.97 Y83.37
G1 F1620 X94.54 Y83.37 E80.23541
G0 F12000 X94.54 Y83.37
G1 F1620 X83.37 Y94.54 E80.33178
G0 F12000 X83.37 Y95.11
G1 F1620 X95.11 Y83.37 E80.43303
G0 F12000 X95.11 Y83.37
G1 F1620 X95.67 Y83.37 E80.43647
G0 F12000 X95.67 Y83.37
G1 F1620 X83.37 Y95.67 E80.54259
G0 F12000 X83.37 Y96.24
G1 F1620 X96.24 Y83.37 E80.65360
G0 F12000 X96.24 Y83.37
G1 F1620 X96.80 Y83.37 E80.65705
G0 F12000 X96.80 Y83.37
G1 F1620 X83.37 Y96.80 E80.77293
G0 F12000 X83.37 Y97.37
G1 F1620 X97.37 Y83.37 E80.89370
G0 F12000 X97.37 Y83.37
G1 F1620 X97.93 Y83.37 E80.89714
G0 F12000 X97.93 Y83.37
G1 F1620 X83.37 Y97.93 E81.02278
G0 F12000 X83.37 Y98.50
G1 F1620 X98.50 Y83.37 E81.15330
G0 F12000 X98.50 Y83.37
G1 F1620 X99.07 Y83.37 E81.15675
G0 F12000 X99.07 Y83.37
G1 F1620 X83.37 Y99.07 E81.29215
G0 F12000 X83.37 Y99.63
G1 F1620 X99.63 Y83.37 E81.43242
G0 F12000 X99.63 Y83.37
G1 F1620 X100.20 Y83.37 E81.43587
G0 F12000 X100.20 Y83.37
G1 F1620 X83.37 Y100.20 E81.58103
G0 F12000 X83.37 Y100.76
G1 F1620 X100.76 Y83.37 E81.73106
G0 F12000 X100.76 Y83.37
G1 F1620 X101.33 Y83.37 E81.73450
G0 F12000 X101.33 Y83.37
G1 F1620 X83.37 Y101.33 E81.88941
G0 F12000 X83.37 Y101.89
G1 F1620 X101.89 Y83.37 E82.04920
G0 F12000 X101.89 Y83.37
G1 F1620 X102.46 Y83.37 E82.05265
G0 F12000 X102.46 Y83.37
G1 F1620 X83.37 Y102.46 E82.21732
G0 F12000 X83.37 Y103.03
