;Generated with Cura_SteamEngine 13.11
M109 S210     ;Heatup to 210C
G21           ;metric values
G90           ;absolute positioning
G28           ;Home
G1 Z15.0 F300 ;move the platform down 15mm
G92 E0        ;zero the extruded length
G1 F200 E5    ;extrude 5mm of feed stock
G92 E0        ;zero the extruded length again

;total_layers=399
;LAYER:0
M107
G0 F4800 X76.30 Y79.93 Z0.30
;TYPE:SKIRT
G1 F2700 E0.00000
G1 F1200 X79.93 Y76.30 E0.09394
G1 X125.07 Y76.30 E0.91961
G1 X128.70 Y79.93 E1.01356
G1 X128.70 Y125.07 E1.83927
G1 X125.07 Y128.70 E1.93324
G1 X79.93 Y128.70 E2.75891
G1 X76.30 Y125.07 E2.85286
G1 X76.30 Y79.93 E3.67857
G0 F4800 X83.00 Y82.91
G0 X83.10 Y83.10
;TYPE:WALL-INNER
G1 F1200 X121.90 Y83.10 E4.38832
G1 X121.90 Y121.90 E5.09811
G1 X83.10 Y121.90 E5.80786
G1 X83.10 Y83.10 E6.51764
G0 F4800 X82.70 Y82.70
;TYPE:WALL-OUTER
G1 F1200 X122.30 Y82.70 E7.24203
G1 X122.30 Y122.30 E7.96645
G1 X82.70 Y122.30 E8.69083
G1 X82.70 Y82.70 E9.41525
G0 F4800 X83.52 Y83.24
;TYPE:FILL
G1 F1200 X83.24 Y83.52 E9.42258
G0 F4800 X83.24 Y83.52
G1 F1200 X121.48 Y121.76 E10.41177
G0 F4800 X121.48 Y121.76
G1 F1200 X120.91 Y121.76 E10.42211
G0 F4800 X120.91 Y121.76
G1 F1200 X83.24 Y84.09 E11.39668
G0 F4800 X83.24 Y84.09
G1 F1200 X83.24 Y84.65 E11.40701
G0 F4800 X83.24 Y84.65
G1 F1200 X120.35 Y121.76 E12.36695
G0 F4800 X120.35 Y121.76
G1 F1200 X119.78 Y121.76 E12.37730
G0 F4800 X119.78 Y121.76
G1 F1200 X83.24 Y85.22 E13.32260
G0 F4800 X83.24 Y85.22
G1 F1200 X83.24 Y85.79 E13.33295
G0 F4800 X83.24 Y85.79
G1 F1200 X119.21 Y121.76 E14.26361
G0 F4800 X119.21 Y121.76
G1 F1200 X118.65 Y121.76 E14.27394
G0 F4800 X118.65 Y121.76
G1 F1200 X83.24 Y86.35 E15.18998
G0 F4800 X83.24 Y86.35
G1 F1200 X83.24 Y86.92 E15.20033
G0 F4800 X83.24 Y86.92
G1 F1200 X118.08 Y121.76 E16.10172
G0 F4800 X118.08 Y121.76
G1 F1200 X117.52 Y121.76 E16.11208
G0 F4800 X117.52 Y121.76
G1 F1200 X83.24 Y87.48 E16.99883
G0 F4800 X83.24 Y87.48
G1 F1200 X83.24 Y88.05 E17.00916
G0 F4800 X83.24 Y88.05
G1 F1200 X116.95 Y121.76 E17.88129
G0 F4800 X116.95 Y121.76
G1 F1200 X116.39 Y121.76 E17.89165
G0 F4800 X116.39 Y121.76
G1 F1200 X83.24 Y88.61 E18.74914
G0 F4800 X83.24 Y88.61
G1 F1200 X83.24 Y89.18 E18.75949
G0 F4800 X83.24 Y89.18
G1 F1200 X115.82 Y121.76 E19.60234
G0 F4800 X115.82 Y121.76
G1 F1200 X115.25 Y121.76 E19.61267
G0 F4800 X115.25 Y121.76
G1 F1200 X83.24 Y89.75 E20.44090
G0 F4800 X83.24 Y89.75
G1 F1200 X83.24 Y90.31 E20.45126
G0 F4800 X83.24 Y90.31
G1 F1200 X114.69 Y121.76 E21.26484
G0 F4800 X114.69 Y121.76
G1 F1200 X114.12 Y121.76 E21.27520
G0 F4800 X114.12 Y121.76
G1 F1200 X83.24 Y90.88 E22.07414
G0 F4800 X83.24 Y90.88
G1 F1200 X83.24 Y91.44 E22.08450
G0 F4800 X83.24 Y91.44
G1 F1200 X113.56 Y121.76 E22.86881
G0 F4800 X113.56 Y121.76
G1 F1200 X112.99 Y121.76 E22.87916
G0 F4800 X112.99 Y121.76
G1 F1200 X83.24 Y92.01 E23.64885
G0 F4800 X83.24 Y92.01
G1 F1200 X83.24 Y92.57 E23.65920
G0 F4800 X83.24 Y92.57
G1 F1200 X112.43 Y121.76 E24.41424
G0 F4800 X112.43 Y121.76
G1 F1200 X111.86 Y121.76 E24.42458
G0 F4800 X111.86 Y121.76
G1 F1200 X83.24 Y93.14 E25.16499
G0 F4800 X83.24 Y93.14
G1 F1200 X83.24 Y93.71 E25.17532
G0 F4800 X83.24 Y93.71
G1 F1200 X111.29 Y121.76 E25.90110
G0 F4800 X111.29 Y121.76
G1 F1200 X110.73 Y121.76 E25.91146
G0 F4800 X110.73 Y121.76
G1 F1200 X83.24 Y94.27 E26.62260
G0 F4800 X83.24 Y94.27
G1 F1200 X83.24 Y94.84 E26.63295
G0 F4800 X83.24 Y94.84
G1 F1200 X110.16 Y121.76 E27.32945
G0 F4800 X110.16 Y121.76
G1 F1200 X109.60 Y121.76 E27.33978
G0 F4800 X109.60 Y121.76
G1 F1200 X83.24 Y95.40 E28.02166
G0 F4800 X83.24 Y95.40
G1 F1200 X83.24 Y95.97 E28.03201
G0 F4800 X83.24 Y95.97
G1 F1200 X109.03 Y121.76 E28.69925
G0 F4800 X109.03 Y121.76
G1 F1200 X108.46 Y121.76 E28.70960
G0 F4800 X108.46 Y121.76
G1 F1200 X83.24 Y96.53 E29.36219
G0 F4800 X83.24 Y96.53
G1 F1200 X83.24 Y97.10 E29.37253
G0 F4800 X83.24 Y97.10
G1 F1200 X107.90 Y121.76 E30.01051
G0 F4800 X107.90 Y121.76
G1 F1200 X107.33 Y121.76 E30.02086
G0 F4800 X107.33 Y121.76
G1 F1200 X83.24 Y97.67 E30.64419
G0 F4800 X83.24 Y97.67
G1 F1200 X83.24 Y98.23 E30.65455
G0 F4800 X83.24 Y98.23
G1 F1200 X106.77 Y121.76 E31.26324
G0 F4800 X106.77 Y121.76
G1 F1200 X106.20 Y121.76 E31.27357
G0 F4800 X106.20 Y121.76
G1 F1200 X83.24 Y98.80 E31.86764
G0 F4800 X83.24 Y98.80
G1 F1200 X83.24 Y99.36 E31.87800
G0 F4800 X83.24 Y99.36
G1 F1200 X105.64 Y121.76 E32.45743
G0 F4800 X105.64 Y121.76
G1 F1200 X105.07 Y121.76 E32.46778
G0 F4800 X105.07 Y121.76
G1 F1200 X83.24 Y99.93 E33.03257
G0 F4800 X83.24 Y99.93
G1 F1200 X83.24 Y100.49 E33.04292
G0 F4800 X83.24 Y100.49
G1 F1200 X104.51 Y121.76 E33.59308
G0 F4800 X104.51 Y121.76
G1 F1200 X103.94 Y121.76 E33.60343
G0 F4800 X103.94 Y121.76
G1 F1200 X83.24 Y101.06 E34.13896
G0 F4800 X83.24 Y101.06
G1 F1200 X83.24 Y101.63 E34.14931
G0 F4800 X83.24 Y101.63
G1 F1200 X103.37 Y121.76 E34.67020
G0 F4800 X103.37 Y121.76
G1 F1200 X102.81 Y121.76 E34.68053
G0 F4800 X102.81 Y121.76
G1 F1200 X83.24 Y102.19 E35.18679
G0 F4800 X83.24 Y102.19
G1 F1200 X83.24 Y102.76 E35.19712
G0 F4800 X83.24 Y102.76
G1 F1200 X102.24 Y121.76 E35.68875
G0 F4800 X102.24 Y121.76
G1 F1200 X101.68 Y121.76 E35.69910
G0 F4800 X101.68 Y121.76
G1 F1200 X83.24 Y103.32 E36.17608
G0 F4800 X83.24 Y103.32
G1 F1200 X83.24 Y103.89 E36.18643
G0 F4800 X83.24 Y103.89
G1 F1200 X101.11 Y121.76 E36.64879
G0 F4800 X101.11 Y121.76
G1 F1200 X100.55 Y121.76 E36.65914
G0 F4800 X100.55 Y121.76
G1 F1200 X83.24 Y104.45 E37.10686
G0 F4800 X83.24 Y104.45
G1 F1200 X83.24 Y105.02 E37.11721
G0 F4800 X83.24 Y105.02
G1 F1200 X99.98 Y121.76 E37.55029
G0 F4800 X99.98 Y121.76
G1 F1200 X99.41 Y121.76 E37.56065
G0 F4800 X99.41 Y121.76
G1 F1200 X83.24 Y105.58 E37.97908
G0 F4800 X83.24 Y105.58
G1 F1200 X83.24 Y106.15 E37.98942
G0 F4800 X83.24 Y106.15
G1 F1200 X98.85 Y121.76 E38.39324
G0 F4800 X98.85 Y121.76
G1 F1200 X98.28 Y121.76 E38.40359
G0 F4800 X98.28 Y121.76
G1 F1200 X83.24 Y106.72 E38.79277
G0 F4800 X83.24 Y106.72
G1 F1200 X83.24 Y107.28 E38.80312
G0 F4800 X83.24 Y107.28
G1 F1200 X97.72 Y121.76 E39.17765
G0 F4800 X97.72 Y121.76
G1 F1200 X97.15 Y121.76 E39.18799
G0 F4800 X97.15 Y121.76
G1 F1200 X83.24 Y107.85 E39.54790
G0 F4800 X83.24 Y107.85
G1 F1200 X83.24 Y108.41 E39.55826
G0 F4800 X83.24 Y108.41
G1 F1200 X96.59 Y121.76 E39.90353
G0 F4800 X96.59 Y121.76
G1 F1200 X96.02 Y121.76 E39.91388
G0 F4800 X96.02 Y121.76
G1 F1200 X83.24 Y108.98 E40.24451
G0 F4800 X83.24 Y108.98
G1 F1200 X83.24 Y109.54 E40.25485
G0 F4800 X83.24 Y109.54
G1 F1200 X95.46 Y121.76 E40.57086
G0 F4800 X95.46 Y121.76
G1 F1200 X94.89 Y121.76 E40.58121
G0 F4800 X94.89 Y121.76
G1 F1200 X83.24 Y110.11 E40.88258
G0 F4800 X83.24 Y110.11
G1 F1200 X83.24 Y110.68 E40.89294
G0 F4800 X83.24 Y110.68
G1 F1200 X94.32 Y121.76 E41.17967
G0 F4800 X94.32 Y121.76
G1 F1200 X93.76 Y121.76 E41.19000
G0 F4800 X93.76 Y121.76
G1 F1200 X83.24 Y111.24 E41.46210
G0 F4800 X83.24 Y111.24
G1 F1200 X83.24 Y111.81 E41.47243
G0 F4800 X83.24 Y111.81
G1 F1200 X93.19 Y121.76 E41.72990
G0 F4800 X93.19 Y121.76
G1 F1200 X92.63 Y121.76 E41.74025
G0 F4800 X92.63 Y121.76
G1 F1200 X83.24 Y112.37 E41.98308
G0 F4800 X83.24 Y112.37
G1 F1200 X83.24 Y112.94 E41.99343
G0 F4800 X83.24 Y112.94
G1 F1200 X92.06 Y121.76 E42.22163
G0 F4800 X92.06 Y121.76
G1 F1200 X91.50 Y121.76 E42.23198
G0 F4800 X91.50 Y121.76
G1 F1200 X83.24 Y113.50 E42.44554
G0 F4800 X83.24 Y113.50
G1 F1200 X83.24 Y114.07 E42.45590
G0 F4800 X83.24 Y114.07
G1 F1200 X90.93 Y121.76 E42.65482
G0 F4800 X90.93 Y121.76
G1 F1200 X90.36 Y121.76 E42.66515
G0 F4800 X90.36 Y121.76
G1 F1200 X83.24 Y114.64 E42.84945
G0 F4800 X83.24 Y114.64
G1 F1200 X83.24 Y115.20 E42.85978
G0 F4800 X83.24 Y115.20
G1 F1200 X89.80 Y121.76 E43.02944
G0 F4800 X89.80 Y121.76
G1 F1200 X89.23 Y121.76 E43.03980
G0 F4800 X89.23 Y121.76
G1 F1200 X83.24 Y115.77 E43.19481
G0 F4800 X83.24 Y115.77
G1 F1200 X83.24 Y116.33 E43.20517
G0 F4800 X83.24 Y116.33
G1 F1200 X88.67 Y121.76 E43.34554
G0 F4800 X88.67 Y121.76
G1 F1200 X88.10 Y121.76 E43.35588
G0 F4800 X88.10 Y121.76
G1 F1200 X83.24 Y116.90 E43.48164
G0 F4800 X83.24 Y116.90
G1 F1200 X83.24 Y117.46 E43.49199
G0 F4800 X83.24 Y117.46
G1 F1200 X87.54 Y121.76 E43.60311
G0 F4800 X87.54 Y121.76
G1 F1200 X86.97 Y121.76 E43.61346
G0 F4800 X86.97 Y121.76
G1 F1200 X83.24 Y118.03 E43.70993
G0 F4800 X83.24 Y118.03
G1 F1200 X83.24 Y118.60 E43.72027
G0 F4800 X83.24 Y118.60
G1 F1200 X86.40 Y121.76 E43.80213
G0 F4800 X86.40 Y121.76
G1 F1200 X85.84 Y121.76 E43.81248
G0 F4800 X85.84 Y121.76
G1 F1200 X83.24 Y119.16 E43.87969
G0 F4800 X83.24 Y119.16
G1 F1200 X83.24 Y119.73 E43.89005
G0 F4800 X83.24 Y119.73
G1 F1200 X85.27 Y121.76 E43.94262
G0 F4800 X85.27 Y121.76
G1 F1200 X84.71 Y121.76 E43.95295
G0 F4800 X84.71 Y121.76
G1 F1200 X83.24 Y120.29 E43.99089
G0 F4800 X83.24 Y120.29
G1 F1200 X83.24 Y120.86 E44.00123
G0 F4800 X83.24 Y120.86
G1 F1200 X84.14 Y121.76 E44.02454
G0 F4800 X84.14 Y121.76
G1 F1200 X83.57 Y121.76 E44.03489
G1 X83.24 Y121.42 E44.04356
G0 F4800 X83.52 Y83.24
G1 F1200 X121.76 Y121.47 E45.03275
G0 F4800 X121.76 Y121.47
G1 F1200 X121.76 Y120.91 E45.04311
G0 F4800 X121.76 Y120.91
G1 F1200 X84.09 Y83.24 E46.01766
G0 F4800 X84.09 Y83.24
G1 F1200 X84.65 Y83.24 E46.02802
G0 F4800 X84.65 Y83.24
G1 F1200 X121.76 Y120.34 E46.98793
G0 F4800 X121.76 Y120.34
G1 F1200 X121.76 Y119.78 E46.99827
G0 F4800 X121.76 Y119.78
G1 F1200 X85.22 Y83.24 E47.94356
G0 F4800 X85.22 Y83.24
G1 F1200 X85.79 Y83.24 E47.95391
G0 F4800 X85.79 Y83.24
G1 F1200 X121.76 Y119.21 E48.88457
G0 F4800 X121.76 Y119.21
G1 F1200 X121.76 Y118.65 E48.89492
G0 F4800 X121.76 Y118.65
G1 F1200 X86.35 Y83.24 E49.81093
G0 F4800 X86.35 Y83.24
G1 F1200 X86.92 Y83.24 E49.82127
G0 F4800 X86.92 Y83.24
G1 F1200 X121.76 Y118.08 E50.72266
G0 F4800 X121.76 Y118.08
G1 F1200 X121.76 Y117.51 E50.73301
G0 F4800 X121.76 Y117.51
G1 F1200 X87.48 Y83.24 E51.61976
G0 F4800 X87.48 Y83.24
G1 F1200 X88.05 Y83.24 E51.63012
G0 F4800 X88.05 Y83.24
G1 F1200 X121.76 Y116.95 E52.50222
G0 F4800 X121.76 Y116.95
G1 F1200 X121.76 Y116.38 E52.51256
G0 F4800 X121.76 Y116.38
G1 F1200 X88.61 Y83.24 E53.37005
G0 F4800 X88.61 Y83.24
G1 F1200 X89.18 Y83.24 E53.38040
G0 F4800 X89.18 Y83.24
G1 F1200 X121.76 Y115.82 E54.22325
G0 F4800 X121.76 Y115.82
G1 F1200 X121.76 Y115.25 E54.23360
G0 F4800 X121.76 Y115.25
G1 F1200 X89.75 Y83.24 E55.06180
G0 F4800 X89.75 Y83.24
G1 F1200 X90.31 Y83.24 E55.07214
G0 F4800 X90.31 Y83.24
G1 F1200 X121.76 Y114.69 E55.88573
G0 F4800 X121.76 Y114.69
G1 F1200 X121.76 Y114.12 E55.89608
G0 F4800 X121.76 Y114.12
G1 F1200 X90.88 Y83.24 E56.69502
G0 F4800 X90.88 Y83.24
G1 F1200 X91.44 Y83.24 E56.70538
G0 F4800 X91.44 Y83.24
G1 F1200 X121.76 Y113.56 E57.48968
G0 F4800 X121.76 Y113.56
G1 F1200 X121.76 Y112.99 E57.50002
G0 F4800 X121.76 Y112.99
G1 F1200 X92.01 Y83.24 E58.26969
G0 F4800 X92.01 Y83.24
G1 F1200 X92.57 Y83.24 E58.28002
G0 F4800 X92.57 Y83.24
G1 F1200 X121.76 Y112.42 E59.03506
G0 F4800 X121.76 Y112.42
G1 F1200 X121.76 Y111.86 E59.04542
G0 F4800 X121.76 Y111.86
G1 F1200 X93.14 Y83.24 E59.78581
G0 F4800 X93.14 Y83.24
G1 F1200 X93.71 Y83.24 E59.79617
G0 F4800 X93.71 Y83.24
G1 F1200 X121.76 Y111.29 E60.52192
G0 F4800 X121.76 Y111.29
G1 F1200 X121.76 Y110.73 E60.53226
G0 F4800 X121.76 Y110.73
G1 F1200 X94.27 Y83.24 E61.24340
G0 F4800 X94.27 Y83.24
G1 F1200 X94.84 Y83.24 E61.25375
G0 F4800 X94.84 Y83.24
G1 F1200 X121.76 Y110.16 E61.95025
G0 F4800 X121.76 Y110.16
G1 F1200 X121.76 Y109.60 E61.96060
G0 F4800 X121.76 Y109.60
G1 F1200 X95.40 Y83.24 E62.64245
G0 F4800 X95.40 Y83.24
G1 F1200 X95.97 Y83.24 E62.65279
G0 F4800 X95.97 Y83.24
G1 F1200 X121.76 Y109.03 E63.32002
G0 F4800 X121.76 Y109.03
G1 F1200 X121.76 Y108.46 E63.33038
G0 F4800 X121.76 Y108.46
G1 F1200 X96.53 Y83.24 E63.98297
G0 F4800 X96.53 Y83.24
G1 F1200 X97.10 Y83.24 E63.99332
G0 F4800 X97.10 Y83.24
G1 F1200 X121.76 Y107.90 E64.63127
G0 F4800 X121.76 Y107.90
G1 F1200 X121.76 Y107.33 E64.64161
G0 F4800 X121.76 Y107.33
G1 F1200 X97.66 Y83.24 E65.26494
G0 F4800 X97.66 Y83.24
G1 F1200 X98.23 Y83.24 E65.27530
G0 F4800 X98.23 Y83.24
G1 F1200 X121.76 Y106.77 E65.88398
G0 F4800 X121.76 Y106.77
G1 F1200 X121.76 Y106.20 E65.89434
G0 F4800 X121.76 Y106.20
G1 F1200 X98.80 Y83.24 E66.48839
G0 F4800 X98.80 Y83.24
G1 F1200 X99.36 Y83.24 E66.49872
G0 F4800 X99.36 Y83.24
G1 F1200 X121.76 Y105.64 E67.07815
G0 F4800 X121.76 Y105.64
G1 F1200 X121.76 Y105.07 E67.08850
G0 F4800 X121.76 Y105.07
G1 F1200 X99.93 Y83.24 E67.65329
G0 F4800 X99.93 Y83.24
G1 F1200 X100.49 Y83.24 E67.66365
G0 F4800 X100.49 Y83.24
G1 F1200 X121.76 Y104.50 E68.21379
G0 F4800 X121.76 Y104.50
G1 F1200 X121.76 Y103.94 E68.22412
G0 F4800 X121.76 Y103.94
G1 F1200 X101.06 Y83.24 E68.75965
G0 F4800 X101.06 Y83.24
G1 F1200 X101.62 Y83.24 E68.77001
G0 F4800 X101.62 Y83.24
G1 F1200 X121.76 Y103.37 E69.29089
G0 F4800 X121.76 Y103.37
G1 F1200 X121.76 Y102.81 E69.30124
G0 F4800 X121.76 Y102.81
G1 F1200 X102.19 Y83.24 E69.80748
G0 F4800 X102.19 Y83.24
G1 F1200 X102.76 Y83.24 E69.81784
G0 F4800 X102.76 Y83.24
G1 F1200 X121.76 Y102.24 E70.30944
G0 F4800 X121.76 Y102.24
G1 F1200 X121.76 Y101.68 E70.31977
G0 F4800 X121.76 Y101.68
G1 F1200 X103.32 Y83.24 E70.79675
G0 F4800 X103.32 Y83.24
G1 F1200 X103.89 Y83.24 E70.80711
G0 F4800 X103.89 Y83.24
G1 F1200 X121.76 Y101.11 E71.26944
G0 F4800 X121.76 Y101.11
G1 F1200 X121.76 Y100.54 E71.27980
G0 F4800 X121.76 Y100.54
G1 F1200 X104.45 Y83.24 E71.72749
G0 F4800 X104.45 Y83.24
G1 F1200 X105.02 Y83.24 E71.73783
G0 F4800 X105.02 Y83.24
G1 F1200 X121.76 Y99.98 E72.17091
G0 F4800 X121.76 Y99.98
G1 F1200 X121.76 Y99.41 E72.18126
G0 F4800 X121.76 Y99.41
G1 F1200 X105.58 Y83.24 E72.59970
G0 F4800 X105.58 Y83.24
G1 F1200 X106.15 Y83.24 E72.61005
G0 F4800 X106.15 Y83.24
G1 F1200 X121.76 Y98.85 E73.01384
G0 F4800 X121.76 Y98.85
G1 F1200 X121.76 Y98.28 E73.02418
G0 F4800 X121.76 Y98.28
G1 F1200 X106.71 Y83.24 E73.41335
G0 F4800 X106.71 Y83.24
G1 F1200 X107.28 Y83.24 E73.42371
G0 F4800 X107.28 Y83.24
G1 F1200 X121.76 Y97.72 E73.79824
G0 F4800 X121.76 Y97.72
G1 F1200 X121.76 Y97.15 E73.80859
G0 F4800 X121.76 Y97.15
G1 F1200 X107.85 Y83.24 E74.16848
G0 F4800 X107.85 Y83.24
G1 F1200 X108.41 Y83.24 E74.17882
G0 F4800 X108.41 Y83.24
G1 F1200 X121.76 Y96.58 E74.52409
G0 F4800 X121.76 Y96.58
G1 F1200 X121.76 Y96.02 E74.53445
G0 F4800 X121.76 Y96.02
G1 F1200 X108.98 Y83.24 E74.86508
G0 F4800 X108.98 Y83.24
G1 F1200 X109.54 Y83.24 E74.87543
G0 F4800 X109.54 Y83.24
G1 F1200 X121.76 Y95.45 E75.19142
G0 F4800 X121.76 Y95.45
G1 F1200 X121.76 Y94.89 E75.20175
G0 F4800 X121.76 Y94.89
G1 F1200 X110.11 Y83.24 E75.50312
G0 F4800 X110.11 Y83.24
G1 F1200 X110.68 Y83.24 E75.51348
G0 F4800 X110.68 Y83.24
G1 F1200 X121.76 Y94.32 E75.80020
G0 F4800 X121.76 Y94.32
G1 F1200 X121.76 Y93.76 E75.81056
G0 F4800 X121.76 Y93.76
G1 F1200 X111.24 Y83.24 E76.08264
G0 F4800 X111.24 Y83.24
G1 F1200 X111.81 Y83.24 E76.09299
G0 F4800 X111.81 Y83.24
G1 F1200 X121.76 Y93.19 E76.35045
G0 F4800 X121.76 Y93.19
G1 F1200 X121.76 Y92.63 E76.36080
G0 F4800 X121.76 Y92.63
G1 F1200 X112.37 Y83.24 E76.60363
G0 F4800 X112.37 Y83.24
G1 F1200 X112.94 Y83.24 E76.61398
G0 F4800 X112.94 Y83.24
G1 F1200 X121.76 Y92.06 E76.84216
G0 F4800 X121.76 Y92.06
G1 F1200 X121.76 Y91.49 E76.85251
G0 F4800 X121.76 Y91.49
G1 F1200 X113.50 Y83.24 E77.06605
G0 F4800 X113.50 Y83.24
G1 F1200 X114.07 Y83.24 E77.07639
G0 F4800 X114.07 Y83.24
G1 F1200 X121.76 Y90.93 E77.27531
G0 F4800 X121.76 Y90.93
G1 F1200 X121.76 Y90.36 E77.28566
G0 F4800 X121.76 Y90.36
G1 F1200 X114.64 Y83.24 E77.46994
G0 F4800 X114.64 Y83.24
G1 F1200 X115.20 Y83.24 E77.48030
G0 F4800 X115.20 Y83.24
G1 F1200 X121.76 Y89.80 E77.64993
G0 F4800 X121.76 Y89.80
G1 F1200 X121.76 Y89.23 E77.66027
G0 F4800 X121.76 Y89.23
G1 F1200 X115.77 Y83.24 E77.81528
G0 F4800 X115.77 Y83.24
G1 F1200 X116.33 Y83.24 E77.82564
G0 F4800 X116.33 Y83.24
G1 F1200 X121.76 Y88.67 E77.96601
G0 F4800 X121.76 Y88.67
G1 F1200 X121.76 Y88.10 E77.97637
G0 F4800 X121.76 Y88.10
G1 F1200 X116.90 Y83.24 E78.10210
G0 F4800 X116.90 Y83.24
G1 F1200 X117.46 Y83.24 E78.11244
G0 F4800 X117.46 Y83.24
G1 F1200 X121.76 Y87.53 E78.22355
G0 F4800 X121.76 Y87.53
G1 F1200 X121.76 Y86.97 E78.23391
G0 F4800 X121.76 Y86.97
G1 F1200 X118.03 Y83.24 E78.33038
